( Made using CamBam - http://www.cambam.co.uk )
( efm_vcf4622_panel 7/19/2016 1:19:38 PM )
( T3 : 3.175 )
G21 G90 G64 G40
G0 Z3.0
( T3 : 3.175 )
T3 M6
( holes )
G17
M3 S1000
G0 X20.3071 Y124.9169
G0 Z3.0
G0 X20.3196 Y124.9169
G1 F1000.0 Z0.0
G2 F2000.0 X20.3008 Y124.9061 Z-0.0333 I-0.0125 J0.0
G2 Y124.9277 Z-0.0667 I0.0062 J0.0108
G2 X20.3196 Y124.9169 Z-0.1 I0.0063 J-0.0108
G2 X20.3008 Y124.9061 Z-0.1333 I-0.0125 J0.0
G2 Y124.9277 Z-0.1667 I0.0062 J0.0108
G2 X20.3196 Y124.9169 Z-0.2 I0.0063 J-0.0108
G2 X20.3008 Y124.9061 Z-0.2333 I-0.0125 J0.0
G2 Y124.9277 Z-0.2667 I0.0062 J0.0108
G2 X20.3196 Y124.9169 Z-0.3 I0.0063 J-0.0108
G2 X20.3008 Y124.9061 Z-0.3333 I-0.0125 J0.0
G2 Y124.9277 Z-0.3667 I0.0062 J0.0108
G2 X20.3196 Y124.9169 Z-0.4 I0.0063 J-0.0108
G2 X20.3008 Y124.9061 Z-0.4333 I-0.0125 J0.0
G2 Y124.9277 Z-0.4667 I0.0062 J0.0108
G2 X20.3196 Y124.9169 Z-0.5 I0.0063 J-0.0108
G2 X20.3008 Y124.9061 Z-0.5333 I-0.0125 J0.0
G2 Y124.9277 Z-0.5667 I0.0062 J0.0108
G2 X20.3196 Y124.9169 Z-0.6 I0.0063 J-0.0108
G2 X20.3008 Y124.9061 Z-0.6333 I-0.0125 J0.0
G2 Y124.9277 Z-0.6667 I0.0062 J0.0108
G2 X20.3196 Y124.9169 Z-0.7 I0.0063 J-0.0108
G2 X20.3008 Y124.9061 Z-0.7333 I-0.0125 J0.0
G2 Y124.9277 Z-0.7667 I0.0062 J0.0108
G2 X20.3196 Y124.9169 Z-0.8 I0.0063 J-0.0108
G2 X20.3008 Y124.9061 Z-0.8333 I-0.0125 J0.0
G2 Y124.9277 Z-0.8667 I0.0062 J0.0108
G2 X20.3196 Y124.9169 Z-0.9 I0.0063 J-0.0108
G2 X20.3008 Y124.9061 Z-0.9333 I-0.0125 J0.0
G2 Y124.9277 Z-0.9667 I0.0062 J0.0108
G2 X20.3196 Y124.9169 Z-1.0 I0.0063 J-0.0108
G2 X20.3008 Y124.9061 Z-1.0333 I-0.0125 J0.0
G2 Y124.9277 Z-1.0667 I0.0062 J0.0108
G2 X20.3196 Y124.9169 Z-1.1 I0.0063 J-0.0108
G2 X20.3008 Y124.9061 Z-1.1333 I-0.0125 J0.0
G2 Y124.9277 Z-1.1667 I0.0062 J0.0108
G2 X20.3196 Y124.9169 Z-1.2 I0.0063 J-0.0108
G2 X20.3008 Y124.9061 Z-1.2333 I-0.0125 J0.0
G2 Y124.9277 Z-1.2667 I0.0062 J0.0108
G2 X20.3196 Y124.9169 Z-1.3 I0.0063 J-0.0108
G2 X20.3008 Y124.9061 Z-1.3333 I-0.0125 J0.0
G2 Y124.9277 Z-1.3667 I0.0062 J0.0108
G2 X20.3196 Y124.9169 Z-1.4 I0.0063 J-0.0108
G2 X20.3008 Y124.9061 Z-1.4333 I-0.0125 J0.0
G2 Y124.9277 Z-1.4667 I0.0062 J0.0108
G2 X20.3196 Y124.9169 Z-1.5 I0.0063 J-0.0108
G2 X20.3008 Y124.9061 Z-1.5333 I-0.0125 J0.0
G2 Y124.9277 Z-1.5667 I0.0062 J0.0108
G2 X20.3196 Y124.9169 Z-1.6 I0.0063 J-0.0108
G2 X20.3008 Y124.9061 Z-1.6333 I-0.0125 J0.0
G2 Y124.9277 Z-1.6667 I0.0062 J0.0108
G2 X20.3196 Y124.9169 Z-1.7 I0.0063 J-0.0108
G2 X20.3008 Y124.9061 Z-1.7333 I-0.0125 J0.0
G2 Y124.9277 Z-1.7667 I0.0062 J0.0108
G2 X20.3196 Y124.9169 Z-1.8 I0.0063 J-0.0108
G2 X20.3008 Y124.9061 Z-1.8333 I-0.0125 J0.0
G2 Y124.9277 Z-1.8667 I0.0062 J0.0108
G2 X20.3196 Y124.9169 Z-1.9 I0.0063 J-0.0108
G2 X20.3008 Y124.9061 Z-1.9333 I-0.0125 J0.0
G2 Y124.9277 Z-1.9667 I0.0062 J0.0108
G2 X20.3196 Y124.9169 Z-2.0 I0.0063 J-0.0108
G2 X20.3008 Y124.9061 Z-2.0333 I-0.0125 J0.0
G2 Y124.9277 Z-2.0667 I0.0062 J0.0108
G2 X20.3196 Y124.9169 Z-2.1 I0.0063 J-0.0108
G2 X20.3008 Y124.9061 Z-2.1333 I-0.0125 J0.0
G2 Y124.9277 Z-2.1667 I0.0062 J0.0108
G2 X20.3196 Y124.9169 Z-2.2 I0.0063 J-0.0108
G2 X20.3008 Y124.9061 Z-2.2333 I-0.0125 J0.0
G2 Y124.9277 Z-2.2667 I0.0062 J0.0108
G2 X20.3196 Y124.9169 Z-2.3 I0.0063 J-0.0108
G2 X20.3008 Y124.9061 Z-2.3333 I-0.0125 J0.0
G2 Y124.9277 Z-2.3667 I0.0062 J0.0108
G2 X20.3196 Y124.9169 Z-2.4 I0.0063 J-0.0108
G2 X20.3008 Y124.9061 Z-2.4333 I-0.0125 J0.0
G2 Y124.9277 Z-2.4667 I0.0062 J0.0108
G2 X20.3196 Y124.9169 Z-2.5 I0.0063 J-0.0108
G2 X20.3008 Y124.9061 Z-2.5333 I-0.0125 J0.0
G2 Y124.9277 Z-2.5667 I0.0062 J0.0108
G2 X20.3196 Y124.9169 Z-2.6 I0.0063 J-0.0108
G2 X20.3008 Y124.9061 Z-2.6333 I-0.0125 J0.0
G2 Y124.9277 Z-2.6667 I0.0062 J0.0108
G2 X20.3196 Y124.9169 Z-2.7 I0.0063 J-0.0108
G2 X20.3008 Y124.9061 Z-2.7333 I-0.0125 J0.0
G2 Y124.9277 Z-2.7667 I0.0062 J0.0108
G2 X20.3196 Y124.9169 Z-2.8 I0.0063 J-0.0108
G2 X20.3008 Y124.9061 Z-2.8333 I-0.0125 J0.0
G2 Y124.9277 Z-2.8667 I0.0062 J0.0108
G2 X20.3196 Y124.9169 Z-2.9 I0.0063 J-0.0108
G2 X20.3008 Y124.9061 Z-2.9333 I-0.0125 J0.0
G2 Y124.9277 Z-2.9667 I0.0062 J0.0108
G2 X20.3196 Y124.9169 Z-3.0 I0.0063 J-0.0108
G2 X20.3008 Y124.9061 Z-3.0333 I-0.0125 J0.0
G2 Y124.9277 Z-3.0667 I0.0062 J0.0108
G2 X20.3196 Y124.9169 Z-3.1 I0.0063 J-0.0108
G2 X20.3008 Y124.9061 Z-3.1333 I-0.0125 J0.0
G2 Y124.9277 Z-3.1667 I0.0062 J0.0108
G2 X20.3196 Y124.9169 Z-3.2 I0.0063 J-0.0108
G2 X20.3008 Y124.9061 I-0.0125 J0.0
G2 Y124.9277 I0.0063 J0.0108
G2 X20.3196 Y124.9169 I0.0062 J-0.0108
G0 Z3.0
G0 X19.4997 Y108.3883
G1 F1000.0 Z0.0
G2 F2000.0 X19.481 Y108.3775 Z-0.0333 I-0.0125 J0.0
G2 Y108.3991 Z-0.0667 I0.0062 J0.0108
G2 X19.4997 Y108.3883 Z-0.1 I0.0063 J-0.0108
G2 X19.481 Y108.3775 Z-0.1333 I-0.0125 J0.0
G2 Y108.3991 Z-0.1667 I0.0062 J0.0108
G2 X19.4997 Y108.3883 Z-0.2 I0.0063 J-0.0108
G2 X19.481 Y108.3775 Z-0.2333 I-0.0125 J0.0
G2 Y108.3991 Z-0.2667 I0.0062 J0.0108
G2 X19.4997 Y108.3883 Z-0.3 I0.0063 J-0.0108
G2 X19.481 Y108.3775 Z-0.3333 I-0.0125 J0.0
G2 Y108.3991 Z-0.3667 I0.0062 J0.0108
G2 X19.4997 Y108.3883 Z-0.4 I0.0063 J-0.0108
G2 X19.481 Y108.3775 Z-0.4333 I-0.0125 J0.0
G2 Y108.3991 Z-0.4667 I0.0062 J0.0108
G2 X19.4997 Y108.3883 Z-0.5 I0.0063 J-0.0108
G2 X19.481 Y108.3775 Z-0.5333 I-0.0125 J0.0
G2 Y108.3991 Z-0.5667 I0.0062 J0.0108
G2 X19.4997 Y108.3883 Z-0.6 I0.0063 J-0.0108
G2 X19.481 Y108.3775 Z-0.6333 I-0.0125 J0.0
G2 Y108.3991 Z-0.6667 I0.0062 J0.0108
G2 X19.4997 Y108.3883 Z-0.7 I0.0063 J-0.0108
G2 X19.481 Y108.3775 Z-0.7333 I-0.0125 J0.0
G2 Y108.3991 Z-0.7667 I0.0062 J0.0108
G2 X19.4997 Y108.3883 Z-0.8 I0.0063 J-0.0108
G2 X19.481 Y108.3775 Z-0.8333 I-0.0125 J0.0
G2 Y108.3991 Z-0.8667 I0.0062 J0.0108
G2 X19.4997 Y108.3883 Z-0.9 I0.0063 J-0.0108
G2 X19.481 Y108.3775 Z-0.9333 I-0.0125 J0.0
G2 Y108.3991 Z-0.9667 I0.0062 J0.0108
G2 X19.4997 Y108.3883 Z-1.0 I0.0063 J-0.0108
G2 X19.481 Y108.3775 Z-1.0333 I-0.0125 J0.0
G2 Y108.3991 Z-1.0667 I0.0062 J0.0108
G2 X19.4997 Y108.3883 Z-1.1 I0.0063 J-0.0108
G2 X19.481 Y108.3775 Z-1.1333 I-0.0125 J0.0
G2 Y108.3991 Z-1.1667 I0.0062 J0.0108
G2 X19.4997 Y108.3883 Z-1.2 I0.0063 J-0.0108
G2 X19.481 Y108.3775 Z-1.2333 I-0.0125 J0.0
G2 Y108.3991 Z-1.2667 I0.0062 J0.0108
G2 X19.4997 Y108.3883 Z-1.3 I0.0063 J-0.0108
G2 X19.481 Y108.3775 Z-1.3333 I-0.0125 J0.0
G2 Y108.3991 Z-1.3667 I0.0062 J0.0108
G2 X19.4997 Y108.3883 Z-1.4 I0.0063 J-0.0108
G2 X19.481 Y108.3775 Z-1.4333 I-0.0125 J0.0
G2 Y108.3991 Z-1.4667 I0.0062 J0.0108
G2 X19.4997 Y108.3883 Z-1.5 I0.0063 J-0.0108
G2 X19.481 Y108.3775 Z-1.5333 I-0.0125 J0.0
G2 Y108.3991 Z-1.5667 I0.0062 J0.0108
G2 X19.4997 Y108.3883 Z-1.6 I0.0063 J-0.0108
G2 X19.481 Y108.3775 Z-1.6333 I-0.0125 J0.0
G2 Y108.3991 Z-1.6667 I0.0062 J0.0108
G2 X19.4997 Y108.3883 Z-1.7 I0.0063 J-0.0108
G2 X19.481 Y108.3775 Z-1.7333 I-0.0125 J0.0
G2 Y108.3991 Z-1.7667 I0.0062 J0.0108
G2 X19.4997 Y108.3883 Z-1.8 I0.0063 J-0.0108
G2 X19.481 Y108.3775 Z-1.8333 I-0.0125 J0.0
G2 Y108.3991 Z-1.8667 I0.0062 J0.0108
G2 X19.4997 Y108.3883 Z-1.9 I0.0063 J-0.0108
G2 X19.481 Y108.3775 Z-1.9333 I-0.0125 J0.0
G2 Y108.3991 Z-1.9667 I0.0062 J0.0108
G2 X19.4997 Y108.3883 Z-2.0 I0.0063 J-0.0108
G2 X19.481 Y108.3775 Z-2.0333 I-0.0125 J0.0
G2 Y108.3991 Z-2.0667 I0.0062 J0.0108
G2 X19.4997 Y108.3883 Z-2.1 I0.0063 J-0.0108
G2 X19.481 Y108.3775 Z-2.1333 I-0.0125 J0.0
G2 Y108.3991 Z-2.1667 I0.0062 J0.0108
G2 X19.4997 Y108.3883 Z-2.2 I0.0063 J-0.0108
G2 X19.481 Y108.3775 Z-2.2333 I-0.0125 J0.0
G2 Y108.3991 Z-2.2667 I0.0062 J0.0108
G2 X19.4997 Y108.3883 Z-2.3 I0.0063 J-0.0108
G2 X19.481 Y108.3775 Z-2.3333 I-0.0125 J0.0
G2 Y108.3991 Z-2.3667 I0.0062 J0.0108
G2 X19.4997 Y108.3883 Z-2.4 I0.0063 J-0.0108
G2 X19.481 Y108.3775 Z-2.4333 I-0.0125 J0.0
G2 Y108.3991 Z-2.4667 I0.0062 J0.0108
G2 X19.4997 Y108.3883 Z-2.5 I0.0063 J-0.0108
G2 X19.481 Y108.3775 Z-2.5333 I-0.0125 J0.0
G2 Y108.3991 Z-2.5667 I0.0062 J0.0108
G2 X19.4997 Y108.3883 Z-2.6 I0.0063 J-0.0108
G2 X19.481 Y108.3775 Z-2.6333 I-0.0125 J0.0
G2 Y108.3991 Z-2.6667 I0.0062 J0.0108
G2 X19.4997 Y108.3883 Z-2.7 I0.0063 J-0.0108
G2 X19.481 Y108.3775 Z-2.7333 I-0.0125 J0.0
G2 Y108.3991 Z-2.7667 I0.0062 J0.0108
G2 X19.4997 Y108.3883 Z-2.8 I0.0063 J-0.0108
G2 X19.481 Y108.3775 Z-2.8333 I-0.0125 J0.0
G2 Y108.3991 Z-2.8667 I0.0062 J0.0108
G2 X19.4997 Y108.3883 Z-2.9 I0.0063 J-0.0108
G2 X19.481 Y108.3775 Z-2.9333 I-0.0125 J0.0
G2 Y108.3991 Z-2.9667 I0.0062 J0.0108
G2 X19.4997 Y108.3883 Z-3.0 I0.0063 J-0.0108
G2 X19.481 Y108.3775 Z-3.0333 I-0.0125 J0.0
G2 Y108.3991 Z-3.0667 I0.0062 J0.0108
G2 X19.4997 Y108.3883 Z-3.1 I0.0063 J-0.0108
G2 X19.481 Y108.3775 Z-3.1333 I-0.0125 J0.0
G2 Y108.3991 Z-3.1667 I0.0062 J0.0108
G2 X19.4997 Y108.3883 Z-3.2 I0.0063 J-0.0108
G2 X19.481 Y108.3775 I-0.0125 J0.0
G2 Y108.3991 I0.0063 J0.0108
G2 X19.4997 Y108.3883 I0.0062 J-0.0108
G0 Z3.0
G0 X26.5346 Y94.6149
G1 F1000.0 Z0.0
G2 F2000.0 X26.5158 Y94.6041 Z-0.0333 I-0.0125 J0.0
G2 Y94.6257 Z-0.0667 I0.0062 J0.0108
G2 X26.5346 Y94.6149 Z-0.1 I0.0063 J-0.0108
G2 X26.5158 Y94.6041 Z-0.1333 I-0.0125 J0.0
G2 Y94.6257 Z-0.1667 I0.0062 J0.0108
G2 X26.5346 Y94.6149 Z-0.2 I0.0063 J-0.0108
G2 X26.5158 Y94.6041 Z-0.2333 I-0.0125 J0.0
G2 Y94.6257 Z-0.2667 I0.0062 J0.0108
G2 X26.5346 Y94.6149 Z-0.3 I0.0063 J-0.0108
G2 X26.5158 Y94.6041 Z-0.3333 I-0.0125 J0.0
G2 Y94.6257 Z-0.3667 I0.0062 J0.0108
G2 X26.5346 Y94.6149 Z-0.4 I0.0063 J-0.0108
G2 X26.5158 Y94.6041 Z-0.4333 I-0.0125 J0.0
G2 Y94.6257 Z-0.4667 I0.0062 J0.0108
G2 X26.5346 Y94.6149 Z-0.5 I0.0063 J-0.0108
G2 X26.5158 Y94.6041 Z-0.5333 I-0.0125 J0.0
G2 Y94.6257 Z-0.5667 I0.0062 J0.0108
G2 X26.5346 Y94.6149 Z-0.6 I0.0063 J-0.0108
G2 X26.5158 Y94.6041 Z-0.6333 I-0.0125 J0.0
G2 Y94.6257 Z-0.6667 I0.0062 J0.0108
G2 X26.5346 Y94.6149 Z-0.7 I0.0063 J-0.0108
G2 X26.5158 Y94.6041 Z-0.7333 I-0.0125 J0.0
G2 Y94.6257 Z-0.7667 I0.0062 J0.0108
G2 X26.5346 Y94.6149 Z-0.8 I0.0063 J-0.0108
G2 X26.5158 Y94.6041 Z-0.8333 I-0.0125 J0.0
G2 Y94.6257 Z-0.8667 I0.0062 J0.0108
G2 X26.5346 Y94.6149 Z-0.9 I0.0063 J-0.0108
G2 X26.5158 Y94.6041 Z-0.9333 I-0.0125 J0.0
G2 Y94.6257 Z-0.9667 I0.0062 J0.0108
G2 X26.5346 Y94.6149 Z-1.0 I0.0063 J-0.0108
G2 X26.5158 Y94.6041 Z-1.0333 I-0.0125 J0.0
G2 Y94.6257 Z-1.0667 I0.0062 J0.0108
G2 X26.5346 Y94.6149 Z-1.1 I0.0063 J-0.0108
G2 X26.5158 Y94.6041 Z-1.1333 I-0.0125 J0.0
G2 Y94.6257 Z-1.1667 I0.0062 J0.0108
G2 X26.5346 Y94.6149 Z-1.2 I0.0063 J-0.0108
G2 X26.5158 Y94.6041 Z-1.2333 I-0.0125 J0.0
G2 Y94.6257 Z-1.2667 I0.0062 J0.0108
G2 X26.5346 Y94.6149 Z-1.3 I0.0063 J-0.0108
G2 X26.5158 Y94.6041 Z-1.3333 I-0.0125 J0.0
G2 Y94.6257 Z-1.3667 I0.0062 J0.0108
G2 X26.5346 Y94.6149 Z-1.4 I0.0063 J-0.0108
G2 X26.5158 Y94.6041 Z-1.4333 I-0.0125 J0.0
G2 Y94.6257 Z-1.4667 I0.0062 J0.0108
G2 X26.5346 Y94.6149 Z-1.5 I0.0063 J-0.0108
G2 X26.5158 Y94.6041 Z-1.5333 I-0.0125 J0.0
G2 Y94.6257 Z-1.5667 I0.0062 J0.0108
G2 X26.5346 Y94.6149 Z-1.6 I0.0063 J-0.0108
G2 X26.5158 Y94.6041 Z-1.6333 I-0.0125 J0.0
G2 Y94.6257 Z-1.6667 I0.0062 J0.0108
G2 X26.5346 Y94.6149 Z-1.7 I0.0063 J-0.0108
G2 X26.5158 Y94.6041 Z-1.7333 I-0.0125 J0.0
G2 Y94.6257 Z-1.7667 I0.0062 J0.0108
G2 X26.5346 Y94.6149 Z-1.8 I0.0063 J-0.0108
G2 X26.5158 Y94.6041 Z-1.8333 I-0.0125 J0.0
G2 Y94.6257 Z-1.8667 I0.0062 J0.0108
G2 X26.5346 Y94.6149 Z-1.9 I0.0063 J-0.0108
G2 X26.5158 Y94.6041 Z-1.9333 I-0.0125 J0.0
G2 Y94.6257 Z-1.9667 I0.0062 J0.0108
G2 X26.5346 Y94.6149 Z-2.0 I0.0063 J-0.0108
G2 X26.5158 Y94.6041 Z-2.0333 I-0.0125 J0.0
G2 Y94.6257 Z-2.0667 I0.0062 J0.0108
G2 X26.5346 Y94.6149 Z-2.1 I0.0063 J-0.0108
G2 X26.5158 Y94.6041 Z-2.1333 I-0.0125 J0.0
G2 Y94.6257 Z-2.1667 I0.0062 J0.0108
G2 X26.5346 Y94.6149 Z-2.2 I0.0063 J-0.0108
G2 X26.5158 Y94.6041 Z-2.2333 I-0.0125 J0.0
G2 Y94.6257 Z-2.2667 I0.0062 J0.0108
G2 X26.5346 Y94.6149 Z-2.3 I0.0063 J-0.0108
G2 X26.5158 Y94.6041 Z-2.3333 I-0.0125 J0.0
G2 Y94.6257 Z-2.3667 I0.0062 J0.0108
G2 X26.5346 Y94.6149 Z-2.4 I0.0063 J-0.0108
G2 X26.5158 Y94.6041 Z-2.4333 I-0.0125 J0.0
G2 Y94.6257 Z-2.4667 I0.0062 J0.0108
G2 X26.5346 Y94.6149 Z-2.5 I0.0063 J-0.0108
G2 X26.5158 Y94.6041 Z-2.5333 I-0.0125 J0.0
G2 Y94.6257 Z-2.5667 I0.0062 J0.0108
G2 X26.5346 Y94.6149 Z-2.6 I0.0063 J-0.0108
G2 X26.5158 Y94.6041 Z-2.6333 I-0.0125 J0.0
G2 Y94.6257 Z-2.6667 I0.0062 J0.0108
G2 X26.5346 Y94.6149 Z-2.7 I0.0063 J-0.0108
G2 X26.5158 Y94.6041 Z-2.7333 I-0.0125 J0.0
G2 Y94.6257 Z-2.7667 I0.0062 J0.0108
G2 X26.5346 Y94.6149 Z-2.8 I0.0063 J-0.0108
G2 X26.5158 Y94.6041 Z-2.8333 I-0.0125 J0.0
G2 Y94.6257 Z-2.8667 I0.0062 J0.0108
G2 X26.5346 Y94.6149 Z-2.9 I0.0063 J-0.0108
G2 X26.5158 Y94.6041 Z-2.9333 I-0.0125 J0.0
G2 Y94.6257 Z-2.9667 I0.0062 J0.0108
G2 X26.5346 Y94.6149 Z-3.0 I0.0063 J-0.0108
G2 X26.5158 Y94.6041 Z-3.0333 I-0.0125 J0.0
G2 Y94.6257 Z-3.0667 I0.0062 J0.0108
G2 X26.5346 Y94.6149 Z-3.1 I0.0063 J-0.0108
G2 X26.5158 Y94.6041 Z-3.1333 I-0.0125 J0.0
G2 Y94.6257 Z-3.1667 I0.0062 J0.0108
G2 X26.5346 Y94.6149 Z-3.2 I0.0063 J-0.0108
G2 X26.5158 Y94.6041 I-0.0125 J0.0
G2 Y94.6257 I0.0063 J0.0108
G2 X26.5346 Y94.6149 I0.0062 J-0.0108
G0 Z3.0
G0 X19.4902 Y80.4818
G1 F1000.0 Z0.0
G2 F2000.0 X19.4715 Y80.4709 Z-0.0333 I-0.0125 J0.0
G2 Y80.4926 Z-0.0667 I0.0062 J0.0108
G2 X19.4902 Y80.4818 Z-0.1 I0.0063 J-0.0108
G2 X19.4715 Y80.4709 Z-0.1333 I-0.0125 J0.0
G2 Y80.4926 Z-0.1667 I0.0062 J0.0108
G2 X19.4902 Y80.4818 Z-0.2 I0.0063 J-0.0108
G2 X19.4715 Y80.4709 Z-0.2333 I-0.0125 J0.0
G2 Y80.4926 Z-0.2667 I0.0062 J0.0108
G2 X19.4902 Y80.4818 Z-0.3 I0.0063 J-0.0108
G2 X19.4715 Y80.4709 Z-0.3333 I-0.0125 J0.0
G2 Y80.4926 Z-0.3667 I0.0062 J0.0108
G2 X19.4902 Y80.4818 Z-0.4 I0.0063 J-0.0108
G2 X19.4715 Y80.4709 Z-0.4333 I-0.0125 J0.0
G2 Y80.4926 Z-0.4667 I0.0062 J0.0108
G2 X19.4902 Y80.4818 Z-0.5 I0.0063 J-0.0108
G2 X19.4715 Y80.4709 Z-0.5333 I-0.0125 J0.0
G2 Y80.4926 Z-0.5667 I0.0062 J0.0108
G2 X19.4902 Y80.4818 Z-0.6 I0.0063 J-0.0108
G2 X19.4715 Y80.4709 Z-0.6333 I-0.0125 J0.0
G2 Y80.4926 Z-0.6667 I0.0062 J0.0108
G2 X19.4902 Y80.4818 Z-0.7 I0.0063 J-0.0108
G2 X19.4715 Y80.4709 Z-0.7333 I-0.0125 J0.0
G2 Y80.4926 Z-0.7667 I0.0062 J0.0108
G2 X19.4902 Y80.4818 Z-0.8 I0.0063 J-0.0108
G2 X19.4715 Y80.4709 Z-0.8333 I-0.0125 J0.0
G2 Y80.4926 Z-0.8667 I0.0062 J0.0108
G2 X19.4902 Y80.4818 Z-0.9 I0.0063 J-0.0108
G2 X19.4715 Y80.4709 Z-0.9333 I-0.0125 J0.0
G2 Y80.4926 Z-0.9667 I0.0062 J0.0108
G2 X19.4902 Y80.4818 Z-1.0 I0.0063 J-0.0108
G2 X19.4715 Y80.4709 Z-1.0333 I-0.0125 J0.0
G2 Y80.4926 Z-1.0667 I0.0062 J0.0108
G2 X19.4902 Y80.4818 Z-1.1 I0.0063 J-0.0108
G2 X19.4715 Y80.4709 Z-1.1333 I-0.0125 J0.0
G2 Y80.4926 Z-1.1667 I0.0062 J0.0108
G2 X19.4902 Y80.4818 Z-1.2 I0.0063 J-0.0108
G2 X19.4715 Y80.4709 Z-1.2333 I-0.0125 J0.0
G2 Y80.4926 Z-1.2667 I0.0062 J0.0108
G2 X19.4902 Y80.4818 Z-1.3 I0.0063 J-0.0108
G2 X19.4715 Y80.4709 Z-1.3333 I-0.0125 J0.0
G2 Y80.4926 Z-1.3667 I0.0062 J0.0108
G2 X19.4902 Y80.4818 Z-1.4 I0.0063 J-0.0108
G2 X19.4715 Y80.4709 Z-1.4333 I-0.0125 J0.0
G2 Y80.4926 Z-1.4667 I0.0062 J0.0108
G2 X19.4902 Y80.4818 Z-1.5 I0.0063 J-0.0108
G2 X19.4715 Y80.4709 Z-1.5333 I-0.0125 J0.0
G2 Y80.4926 Z-1.5667 I0.0062 J0.0108
G2 X19.4902 Y80.4818 Z-1.6 I0.0063 J-0.0108
G2 X19.4715 Y80.4709 Z-1.6333 I-0.0125 J0.0
G2 Y80.4926 Z-1.6667 I0.0062 J0.0108
G2 X19.4902 Y80.4818 Z-1.7 I0.0063 J-0.0108
G2 X19.4715 Y80.4709 Z-1.7333 I-0.0125 J0.0
G2 Y80.4926 Z-1.7667 I0.0062 J0.0108
G2 X19.4902 Y80.4818 Z-1.8 I0.0063 J-0.0108
G2 X19.4715 Y80.4709 Z-1.8333 I-0.0125 J0.0
G2 Y80.4926 Z-1.8667 I0.0062 J0.0108
G2 X19.4902 Y80.4818 Z-1.9 I0.0063 J-0.0108
G2 X19.4715 Y80.4709 Z-1.9333 I-0.0125 J0.0
G2 Y80.4926 Z-1.9667 I0.0062 J0.0108
G2 X19.4902 Y80.4818 Z-2.0 I0.0063 J-0.0108
G2 X19.4715 Y80.4709 Z-2.0333 I-0.0125 J0.0
G2 Y80.4926 Z-2.0667 I0.0062 J0.0108
G2 X19.4902 Y80.4818 Z-2.1 I0.0063 J-0.0108
G2 X19.4715 Y80.4709 Z-2.1333 I-0.0125 J0.0
G2 Y80.4926 Z-2.1667 I0.0062 J0.0108
G2 X19.4902 Y80.4818 Z-2.2 I0.0063 J-0.0108
G2 X19.4715 Y80.4709 Z-2.2333 I-0.0125 J0.0
G2 Y80.4926 Z-2.2667 I0.0062 J0.0108
G2 X19.4902 Y80.4818 Z-2.3 I0.0063 J-0.0108
G2 X19.4715 Y80.4709 Z-2.3333 I-0.0125 J0.0
G2 Y80.4926 Z-2.3667 I0.0062 J0.0108
G2 X19.4902 Y80.4818 Z-2.4 I0.0063 J-0.0108
G2 X19.4715 Y80.4709 Z-2.4333 I-0.0125 J0.0
G2 Y80.4926 Z-2.4667 I0.0062 J0.0108
G2 X19.4902 Y80.4818 Z-2.5 I0.0063 J-0.0108
G2 X19.4715 Y80.4709 Z-2.5333 I-0.0125 J0.0
G2 Y80.4926 Z-2.5667 I0.0062 J0.0108
G2 X19.4902 Y80.4818 Z-2.6 I0.0063 J-0.0108
G2 X19.4715 Y80.4709 Z-2.6333 I-0.0125 J0.0
G2 Y80.4926 Z-2.6667 I0.0062 J0.0108
G2 X19.4902 Y80.4818 Z-2.7 I0.0063 J-0.0108
G2 X19.4715 Y80.4709 Z-2.7333 I-0.0125 J0.0
G2 Y80.4926 Z-2.7667 I0.0062 J0.0108
G2 X19.4902 Y80.4818 Z-2.8 I0.0063 J-0.0108
G2 X19.4715 Y80.4709 Z-2.8333 I-0.0125 J0.0
G2 Y80.4926 Z-2.8667 I0.0062 J0.0108
G2 X19.4902 Y80.4818 Z-2.9 I0.0063 J-0.0108
G2 X19.4715 Y80.4709 Z-2.9333 I-0.0125 J0.0
G2 Y80.4926 Z-2.9667 I0.0062 J0.0108
G2 X19.4902 Y80.4818 Z-3.0 I0.0063 J-0.0108
G2 X19.4715 Y80.4709 Z-3.0333 I-0.0125 J0.0
G2 Y80.4926 Z-3.0667 I0.0062 J0.0108
G2 X19.4902 Y80.4818 Z-3.1 I0.0063 J-0.0108
G2 X19.4715 Y80.4709 Z-3.1333 I-0.0125 J0.0
G2 Y80.4926 Z-3.1667 I0.0062 J0.0108
G2 X19.4902 Y80.4818 Z-3.2 I0.0063 J-0.0108
G2 X19.4715 Y80.4709 I-0.0125 J0.0
G2 Y80.4926 I0.0063 J0.0108
G2 X19.4902 Y80.4818 I0.0062 J-0.0108
G0 Z3.0
G0 X26.5344 Y66.7071
G1 F1000.0 Z0.0
G2 F2000.0 X26.5157 Y66.6963 Z-0.0333 I-0.0125 J0.0
G2 Y66.718 Z-0.0667 I0.0062 J0.0108
G2 X26.5344 Y66.7071 Z-0.1 I0.0063 J-0.0108
G2 X26.5157 Y66.6963 Z-0.1333 I-0.0125 J0.0
G2 Y66.718 Z-0.1667 I0.0062 J0.0108
G2 X26.5344 Y66.7071 Z-0.2 I0.0063 J-0.0108
G2 X26.5157 Y66.6963 Z-0.2333 I-0.0125 J0.0
G2 Y66.718 Z-0.2667 I0.0062 J0.0108
G2 X26.5344 Y66.7071 Z-0.3 I0.0063 J-0.0108
G2 X26.5157 Y66.6963 Z-0.3333 I-0.0125 J0.0
G2 Y66.718 Z-0.3667 I0.0062 J0.0108
G2 X26.5344 Y66.7071 Z-0.4 I0.0063 J-0.0108
G2 X26.5157 Y66.6963 Z-0.4333 I-0.0125 J0.0
G2 Y66.718 Z-0.4667 I0.0062 J0.0108
G2 X26.5344 Y66.7071 Z-0.5 I0.0063 J-0.0108
G2 X26.5157 Y66.6963 Z-0.5333 I-0.0125 J0.0
G2 Y66.718 Z-0.5667 I0.0062 J0.0108
G2 X26.5344 Y66.7071 Z-0.6 I0.0063 J-0.0108
G2 X26.5157 Y66.6963 Z-0.6333 I-0.0125 J0.0
G2 Y66.718 Z-0.6667 I0.0062 J0.0108
G2 X26.5344 Y66.7071 Z-0.7 I0.0063 J-0.0108
G2 X26.5157 Y66.6963 Z-0.7333 I-0.0125 J0.0
G2 Y66.718 Z-0.7667 I0.0062 J0.0108
G2 X26.5344 Y66.7071 Z-0.8 I0.0063 J-0.0108
G2 X26.5157 Y66.6963 Z-0.8333 I-0.0125 J0.0
G2 Y66.718 Z-0.8667 I0.0062 J0.0108
G2 X26.5344 Y66.7071 Z-0.9 I0.0063 J-0.0108
G2 X26.5157 Y66.6963 Z-0.9333 I-0.0125 J0.0
G2 Y66.718 Z-0.9667 I0.0062 J0.0108
G2 X26.5344 Y66.7071 Z-1.0 I0.0063 J-0.0108
G2 X26.5157 Y66.6963 Z-1.0333 I-0.0125 J0.0
G2 Y66.718 Z-1.0667 I0.0062 J0.0108
G2 X26.5344 Y66.7071 Z-1.1 I0.0063 J-0.0108
G2 X26.5157 Y66.6963 Z-1.1333 I-0.0125 J0.0
G2 Y66.718 Z-1.1667 I0.0062 J0.0108
G2 X26.5344 Y66.7071 Z-1.2 I0.0063 J-0.0108
G2 X26.5157 Y66.6963 Z-1.2333 I-0.0125 J0.0
G2 Y66.718 Z-1.2667 I0.0062 J0.0108
G2 X26.5344 Y66.7071 Z-1.3 I0.0063 J-0.0108
G2 X26.5157 Y66.6963 Z-1.3333 I-0.0125 J0.0
G2 Y66.718 Z-1.3667 I0.0062 J0.0108
G2 X26.5344 Y66.7071 Z-1.4 I0.0063 J-0.0108
G2 X26.5157 Y66.6963 Z-1.4333 I-0.0125 J0.0
G2 Y66.718 Z-1.4667 I0.0062 J0.0108
G2 X26.5344 Y66.7071 Z-1.5 I0.0063 J-0.0108
G2 X26.5157 Y66.6963 Z-1.5333 I-0.0125 J0.0
G2 Y66.718 Z-1.5667 I0.0062 J0.0108
G2 X26.5344 Y66.7071 Z-1.6 I0.0063 J-0.0108
G2 X26.5157 Y66.6963 Z-1.6333 I-0.0125 J0.0
G2 Y66.718 Z-1.6667 I0.0062 J0.0108
G2 X26.5344 Y66.7071 Z-1.7 I0.0063 J-0.0108
G2 X26.5157 Y66.6963 Z-1.7333 I-0.0125 J0.0
G2 Y66.718 Z-1.7667 I0.0062 J0.0108
G2 X26.5344 Y66.7071 Z-1.8 I0.0063 J-0.0108
G2 X26.5157 Y66.6963 Z-1.8333 I-0.0125 J0.0
G2 Y66.718 Z-1.8667 I0.0062 J0.0108
G2 X26.5344 Y66.7071 Z-1.9 I0.0063 J-0.0108
G2 X26.5157 Y66.6963 Z-1.9333 I-0.0125 J0.0
G2 Y66.718 Z-1.9667 I0.0062 J0.0108
G2 X26.5344 Y66.7071 Z-2.0 I0.0063 J-0.0108
G2 X26.5157 Y66.6963 Z-2.0333 I-0.0125 J0.0
G2 Y66.718 Z-2.0667 I0.0062 J0.0108
G2 X26.5344 Y66.7071 Z-2.1 I0.0063 J-0.0108
G2 X26.5157 Y66.6963 Z-2.1333 I-0.0125 J0.0
G2 Y66.718 Z-2.1667 I0.0062 J0.0108
G2 X26.5344 Y66.7071 Z-2.2 I0.0063 J-0.0108
G2 X26.5157 Y66.6963 Z-2.2333 I-0.0125 J0.0
G2 Y66.718 Z-2.2667 I0.0062 J0.0108
G2 X26.5344 Y66.7071 Z-2.3 I0.0063 J-0.0108
G2 X26.5157 Y66.6963 Z-2.3333 I-0.0125 J0.0
G2 Y66.718 Z-2.3667 I0.0062 J0.0108
G2 X26.5344 Y66.7071 Z-2.4 I0.0063 J-0.0108
G2 X26.5157 Y66.6963 Z-2.4333 I-0.0125 J0.0
G2 Y66.718 Z-2.4667 I0.0062 J0.0108
G2 X26.5344 Y66.7071 Z-2.5 I0.0063 J-0.0108
G2 X26.5157 Y66.6963 Z-2.5333 I-0.0125 J0.0
G2 Y66.718 Z-2.5667 I0.0062 J0.0108
G2 X26.5344 Y66.7071 Z-2.6 I0.0063 J-0.0108
G2 X26.5157 Y66.6963 Z-2.6333 I-0.0125 J0.0
G2 Y66.718 Z-2.6667 I0.0062 J0.0108
G2 X26.5344 Y66.7071 Z-2.7 I0.0063 J-0.0108
G2 X26.5157 Y66.6963 Z-2.7333 I-0.0125 J0.0
G2 Y66.718 Z-2.7667 I0.0062 J0.0108
G2 X26.5344 Y66.7071 Z-2.8 I0.0063 J-0.0108
G2 X26.5157 Y66.6963 Z-2.8333 I-0.0125 J0.0
G2 Y66.718 Z-2.8667 I0.0062 J0.0108
G2 X26.5344 Y66.7071 Z-2.9 I0.0063 J-0.0108
G2 X26.5157 Y66.6963 Z-2.9333 I-0.0125 J0.0
G2 Y66.718 Z-2.9667 I0.0062 J0.0108
G2 X26.5344 Y66.7071 Z-3.0 I0.0063 J-0.0108
G2 X26.5157 Y66.6963 Z-3.0333 I-0.0125 J0.0
G2 Y66.718 Z-3.0667 I0.0062 J0.0108
G2 X26.5344 Y66.7071 Z-3.1 I0.0063 J-0.0108
G2 X26.5157 Y66.6963 Z-3.1333 I-0.0125 J0.0
G2 Y66.718 Z-3.1667 I0.0062 J0.0108
G2 X26.5344 Y66.7071 Z-3.2 I0.0063 J-0.0108
G2 X26.5157 Y66.6963 I-0.0125 J0.0
G2 Y66.718 I0.0063 J0.0108
G2 X26.5344 Y66.7071 I0.0062 J-0.0108
G0 Z3.0
G0 Y49.2094
G1 F1000.0 Z0.0
G2 F2000.0 X26.5157 Y49.1985 Z-0.0333 I-0.0125 J0.0
G2 Y49.2202 Z-0.0667 I0.0063 J0.0108
G2 X26.5344 Y49.2094 Z-0.1 I0.0062 J-0.0108
G2 X26.5157 Y49.1985 Z-0.1333 I-0.0125 J0.0
G2 Y49.2202 Z-0.1667 I0.0063 J0.0108
G2 X26.5344 Y49.2094 Z-0.2 I0.0062 J-0.0108
G2 X26.5157 Y49.1985 Z-0.2333 I-0.0125 J0.0
G2 Y49.2202 Z-0.2667 I0.0063 J0.0108
G2 X26.5344 Y49.2094 Z-0.3 I0.0062 J-0.0108
G2 X26.5157 Y49.1985 Z-0.3333 I-0.0125 J0.0
G2 Y49.2202 Z-0.3667 I0.0063 J0.0108
G2 X26.5344 Y49.2094 Z-0.4 I0.0062 J-0.0108
G2 X26.5157 Y49.1985 Z-0.4333 I-0.0125 J0.0
G2 Y49.2202 Z-0.4667 I0.0063 J0.0108
G2 X26.5344 Y49.2094 Z-0.5 I0.0062 J-0.0108
G2 X26.5157 Y49.1985 Z-0.5333 I-0.0125 J0.0
G2 Y49.2202 Z-0.5667 I0.0063 J0.0108
G2 X26.5344 Y49.2094 Z-0.6 I0.0062 J-0.0108
G2 X26.5157 Y49.1985 Z-0.6333 I-0.0125 J0.0
G2 Y49.2202 Z-0.6667 I0.0063 J0.0108
G2 X26.5344 Y49.2094 Z-0.7 I0.0062 J-0.0108
G2 X26.5157 Y49.1985 Z-0.7333 I-0.0125 J0.0
G2 Y49.2202 Z-0.7667 I0.0063 J0.0108
G2 X26.5344 Y49.2094 Z-0.8 I0.0062 J-0.0108
G2 X26.5157 Y49.1985 Z-0.8333 I-0.0125 J0.0
G2 Y49.2202 Z-0.8667 I0.0063 J0.0108
G2 X26.5344 Y49.2094 Z-0.9 I0.0062 J-0.0108
G2 X26.5157 Y49.1985 Z-0.9333 I-0.0125 J0.0
G2 Y49.2202 Z-0.9667 I0.0063 J0.0108
G2 X26.5344 Y49.2094 Z-1.0 I0.0062 J-0.0108
G2 X26.5157 Y49.1985 Z-1.0333 I-0.0125 J0.0
G2 Y49.2202 Z-1.0667 I0.0063 J0.0108
G2 X26.5344 Y49.2094 Z-1.1 I0.0062 J-0.0108
G2 X26.5157 Y49.1985 Z-1.1333 I-0.0125 J0.0
G2 Y49.2202 Z-1.1667 I0.0063 J0.0108
G2 X26.5344 Y49.2094 Z-1.2 I0.0062 J-0.0108
G2 X26.5157 Y49.1985 Z-1.2333 I-0.0125 J0.0
G2 Y49.2202 Z-1.2667 I0.0063 J0.0108
G2 X26.5344 Y49.2094 Z-1.3 I0.0062 J-0.0108
G2 X26.5157 Y49.1985 Z-1.3333 I-0.0125 J0.0
G2 Y49.2202 Z-1.3667 I0.0063 J0.0108
G2 X26.5344 Y49.2094 Z-1.4 I0.0062 J-0.0108
G2 X26.5157 Y49.1985 Z-1.4333 I-0.0125 J0.0
G2 Y49.2202 Z-1.4667 I0.0063 J0.0108
G2 X26.5344 Y49.2094 Z-1.5 I0.0062 J-0.0108
G2 X26.5157 Y49.1985 Z-1.5333 I-0.0125 J0.0
G2 Y49.2202 Z-1.5667 I0.0063 J0.0108
G2 X26.5344 Y49.2094 Z-1.6 I0.0062 J-0.0108
G2 X26.5157 Y49.1985 Z-1.6333 I-0.0125 J0.0
G2 Y49.2202 Z-1.6667 I0.0063 J0.0108
G2 X26.5344 Y49.2094 Z-1.7 I0.0062 J-0.0108
G2 X26.5157 Y49.1985 Z-1.7333 I-0.0125 J0.0
G2 Y49.2202 Z-1.7667 I0.0063 J0.0108
G2 X26.5344 Y49.2094 Z-1.8 I0.0062 J-0.0108
G2 X26.5157 Y49.1985 Z-1.8333 I-0.0125 J0.0
G2 Y49.2202 Z-1.8667 I0.0063 J0.0108
G2 X26.5344 Y49.2094 Z-1.9 I0.0062 J-0.0108
G2 X26.5157 Y49.1985 Z-1.9333 I-0.0125 J0.0
G2 Y49.2202 Z-1.9667 I0.0063 J0.0108
G2 X26.5344 Y49.2094 Z-2.0 I0.0062 J-0.0108
G2 X26.5157 Y49.1985 Z-2.0333 I-0.0125 J0.0
G2 Y49.2202 Z-2.0667 I0.0063 J0.0108
G2 X26.5344 Y49.2094 Z-2.1 I0.0062 J-0.0108
G2 X26.5157 Y49.1985 Z-2.1333 I-0.0125 J0.0
G2 Y49.2202 Z-2.1667 I0.0063 J0.0108
G2 X26.5344 Y49.2094 Z-2.2 I0.0062 J-0.0108
G2 X26.5157 Y49.1985 Z-2.2333 I-0.0125 J0.0
G2 Y49.2202 Z-2.2667 I0.0063 J0.0108
G2 X26.5344 Y49.2094 Z-2.3 I0.0062 J-0.0108
G2 X26.5157 Y49.1985 Z-2.3333 I-0.0125 J0.0
G2 Y49.2202 Z-2.3667 I0.0063 J0.0108
G2 X26.5344 Y49.2094 Z-2.4 I0.0062 J-0.0108
G2 X26.5157 Y49.1985 Z-2.4333 I-0.0125 J0.0
G2 Y49.2202 Z-2.4667 I0.0063 J0.0108
G2 X26.5344 Y49.2094 Z-2.5 I0.0062 J-0.0108
G2 X26.5157 Y49.1985 Z-2.5333 I-0.0125 J0.0
G2 Y49.2202 Z-2.5667 I0.0063 J0.0108
G2 X26.5344 Y49.2094 Z-2.6 I0.0062 J-0.0108
G2 X26.5157 Y49.1985 Z-2.6333 I-0.0125 J0.0
G2 Y49.2202 Z-2.6667 I0.0063 J0.0108
G2 X26.5344 Y49.2094 Z-2.7 I0.0062 J-0.0108
G2 X26.5157 Y49.1985 Z-2.7333 I-0.0125 J0.0
G2 Y49.2202 Z-2.7667 I0.0063 J0.0108
G2 X26.5344 Y49.2094 Z-2.8 I0.0062 J-0.0108
G2 X26.5157 Y49.1985 Z-2.8333 I-0.0125 J0.0
G2 Y49.2202 Z-2.8667 I0.0063 J0.0108
G2 X26.5344 Y49.2094 Z-2.9 I0.0062 J-0.0108
G2 X26.5157 Y49.1985 Z-2.9333 I-0.0125 J0.0
G2 Y49.2202 Z-2.9667 I0.0063 J0.0108
G2 X26.5344 Y49.2094 Z-3.0 I0.0062 J-0.0108
G2 X26.5157 Y49.1985 Z-3.0333 I-0.0125 J0.0
G2 Y49.2202 Z-3.0667 I0.0063 J0.0108
G2 X26.5344 Y49.2094 Z-3.1 I0.0062 J-0.0108
G2 X26.5157 Y49.1985 Z-3.1333 I-0.0125 J0.0
G2 Y49.2202 Z-3.1667 I0.0063 J0.0108
G2 X26.5344 Y49.2094 Z-3.2 I0.0062 J-0.0108
G2 X26.5157 Y49.1985 I-0.0125 J0.0
G2 Y49.2202 I0.0063 J0.0108
G2 X26.5344 Y49.2094 I0.0062 J-0.0108
G0 Z3.0
G0 Y32.4987
G1 F1000.0 Z0.0
G2 F2000.0 X26.5157 Y32.4879 Z-0.0333 I-0.0125 J0.0
G2 Y32.5095 Z-0.0667 I0.0063 J0.0108
G2 X26.5344 Y32.4987 Z-0.1 I0.0062 J-0.0108
G2 X26.5157 Y32.4879 Z-0.1333 I-0.0125 J0.0
G2 Y32.5095 Z-0.1667 I0.0063 J0.0108
G2 X26.5344 Y32.4987 Z-0.2 I0.0062 J-0.0108
G2 X26.5157 Y32.4879 Z-0.2333 I-0.0125 J0.0
G2 Y32.5095 Z-0.2667 I0.0063 J0.0108
G2 X26.5344 Y32.4987 Z-0.3 I0.0062 J-0.0108
G2 X26.5157 Y32.4879 Z-0.3333 I-0.0125 J0.0
G2 Y32.5095 Z-0.3667 I0.0063 J0.0108
G2 X26.5344 Y32.4987 Z-0.4 I0.0062 J-0.0108
G2 X26.5157 Y32.4879 Z-0.4333 I-0.0125 J0.0
G2 Y32.5095 Z-0.4667 I0.0063 J0.0108
G2 X26.5344 Y32.4987 Z-0.5 I0.0062 J-0.0108
G2 X26.5157 Y32.4879 Z-0.5333 I-0.0125 J0.0
G2 Y32.5095 Z-0.5667 I0.0063 J0.0108
G2 X26.5344 Y32.4987 Z-0.6 I0.0062 J-0.0108
G2 X26.5157 Y32.4879 Z-0.6333 I-0.0125 J0.0
G2 Y32.5095 Z-0.6667 I0.0063 J0.0108
G2 X26.5344 Y32.4987 Z-0.7 I0.0062 J-0.0108
G2 X26.5157 Y32.4879 Z-0.7333 I-0.0125 J0.0
G2 Y32.5095 Z-0.7667 I0.0063 J0.0108
G2 X26.5344 Y32.4987 Z-0.8 I0.0062 J-0.0108
G2 X26.5157 Y32.4879 Z-0.8333 I-0.0125 J0.0
G2 Y32.5095 Z-0.8667 I0.0063 J0.0108
G2 X26.5344 Y32.4987 Z-0.9 I0.0062 J-0.0108
G2 X26.5157 Y32.4879 Z-0.9333 I-0.0125 J0.0
G2 Y32.5095 Z-0.9667 I0.0063 J0.0108
G2 X26.5344 Y32.4987 Z-1.0 I0.0062 J-0.0108
G2 X26.5157 Y32.4879 Z-1.0333 I-0.0125 J0.0
G2 Y32.5095 Z-1.0667 I0.0063 J0.0108
G2 X26.5344 Y32.4987 Z-1.1 I0.0062 J-0.0108
G2 X26.5157 Y32.4879 Z-1.1333 I-0.0125 J0.0
G2 Y32.5095 Z-1.1667 I0.0063 J0.0108
G2 X26.5344 Y32.4987 Z-1.2 I0.0062 J-0.0108
G2 X26.5157 Y32.4879 Z-1.2333 I-0.0125 J0.0
G2 Y32.5095 Z-1.2667 I0.0063 J0.0108
G2 X26.5344 Y32.4987 Z-1.3 I0.0062 J-0.0108
G2 X26.5157 Y32.4879 Z-1.3333 I-0.0125 J0.0
G2 Y32.5095 Z-1.3667 I0.0063 J0.0108
G2 X26.5344 Y32.4987 Z-1.4 I0.0062 J-0.0108
G2 X26.5157 Y32.4879 Z-1.4333 I-0.0125 J0.0
G2 Y32.5095 Z-1.4667 I0.0063 J0.0108
G2 X26.5344 Y32.4987 Z-1.5 I0.0062 J-0.0108
G2 X26.5157 Y32.4879 Z-1.5333 I-0.0125 J0.0
G2 Y32.5095 Z-1.5667 I0.0063 J0.0108
G2 X26.5344 Y32.4987 Z-1.6 I0.0062 J-0.0108
G2 X26.5157 Y32.4879 Z-1.6333 I-0.0125 J0.0
G2 Y32.5095 Z-1.6667 I0.0063 J0.0108
G2 X26.5344 Y32.4987 Z-1.7 I0.0062 J-0.0108
G2 X26.5157 Y32.4879 Z-1.7333 I-0.0125 J0.0
G2 Y32.5095 Z-1.7667 I0.0063 J0.0108
G2 X26.5344 Y32.4987 Z-1.8 I0.0062 J-0.0108
G2 X26.5157 Y32.4879 Z-1.8333 I-0.0125 J0.0
G2 Y32.5095 Z-1.8667 I0.0063 J0.0108
G2 X26.5344 Y32.4987 Z-1.9 I0.0062 J-0.0108
G2 X26.5157 Y32.4879 Z-1.9333 I-0.0125 J0.0
G2 Y32.5095 Z-1.9667 I0.0063 J0.0108
G2 X26.5344 Y32.4987 Z-2.0 I0.0062 J-0.0108
G2 X26.5157 Y32.4879 Z-2.0333 I-0.0125 J0.0
G2 Y32.5095 Z-2.0667 I0.0063 J0.0108
G2 X26.5344 Y32.4987 Z-2.1 I0.0062 J-0.0108
G2 X26.5157 Y32.4879 Z-2.1333 I-0.0125 J0.0
G2 Y32.5095 Z-2.1667 I0.0063 J0.0108
G2 X26.5344 Y32.4987 Z-2.2 I0.0062 J-0.0108
G2 X26.5157 Y32.4879 Z-2.2333 I-0.0125 J0.0
G2 Y32.5095 Z-2.2667 I0.0063 J0.0108
G2 X26.5344 Y32.4987 Z-2.3 I0.0062 J-0.0108
G2 X26.5157 Y32.4879 Z-2.3333 I-0.0125 J0.0
G2 Y32.5095 Z-2.3667 I0.0063 J0.0108
G2 X26.5344 Y32.4987 Z-2.4 I0.0062 J-0.0108
G2 X26.5157 Y32.4879 Z-2.4333 I-0.0125 J0.0
G2 Y32.5095 Z-2.4667 I0.0063 J0.0108
G2 X26.5344 Y32.4987 Z-2.5 I0.0062 J-0.0108
G2 X26.5157 Y32.4879 Z-2.5333 I-0.0125 J0.0
G2 Y32.5095 Z-2.5667 I0.0063 J0.0108
G2 X26.5344 Y32.4987 Z-2.6 I0.0062 J-0.0108
G2 X26.5157 Y32.4879 Z-2.6333 I-0.0125 J0.0
G2 Y32.5095 Z-2.6667 I0.0063 J0.0108
G2 X26.5344 Y32.4987 Z-2.7 I0.0062 J-0.0108
G2 X26.5157 Y32.4879 Z-2.7333 I-0.0125 J0.0
G2 Y32.5095 Z-2.7667 I0.0063 J0.0108
G2 X26.5344 Y32.4987 Z-2.8 I0.0062 J-0.0108
G2 X26.5157 Y32.4879 Z-2.8333 I-0.0125 J0.0
G2 Y32.5095 Z-2.8667 I0.0063 J0.0108
G2 X26.5344 Y32.4987 Z-2.9 I0.0062 J-0.0108
G2 X26.5157 Y32.4879 Z-2.9333 I-0.0125 J0.0
G2 Y32.5095 Z-2.9667 I0.0063 J0.0108
G2 X26.5344 Y32.4987 Z-3.0 I0.0062 J-0.0108
G2 X26.5157 Y32.4879 Z-3.0333 I-0.0125 J0.0
G2 Y32.5095 Z-3.0667 I0.0063 J0.0108
G2 X26.5344 Y32.4987 Z-3.1 I0.0062 J-0.0108
G2 X26.5157 Y32.4879 Z-3.1333 I-0.0125 J0.0
G2 Y32.5095 Z-3.1667 I0.0063 J0.0108
G2 X26.5344 Y32.4987 Z-3.2 I0.0062 J-0.0108
G2 X26.5157 Y32.4879 I-0.0125 J0.0
G2 Y32.5095 I0.0063 J0.0108
G2 X26.5344 Y32.4987 I0.0062 J-0.0108
G0 Z3.0
G0 X19.4766 Y18.2587
G1 F1000.0 Z0.0
G2 F2000.0 X19.4579 Y18.2479 Z-0.0333 I-0.0125 J0.0
G2 Y18.2695 Z-0.0667 I0.0062 J0.0108
G2 X19.4766 Y18.2587 Z-0.1 I0.0063 J-0.0108
G2 X19.4579 Y18.2479 Z-0.1333 I-0.0125 J0.0
G2 Y18.2695 Z-0.1667 I0.0062 J0.0108
G2 X19.4766 Y18.2587 Z-0.2 I0.0063 J-0.0108
G2 X19.4579 Y18.2479 Z-0.2333 I-0.0125 J0.0
G2 Y18.2695 Z-0.2667 I0.0062 J0.0108
G2 X19.4766 Y18.2587 Z-0.3 I0.0063 J-0.0108
G2 X19.4579 Y18.2479 Z-0.3333 I-0.0125 J0.0
G2 Y18.2695 Z-0.3667 I0.0062 J0.0108
G2 X19.4766 Y18.2587 Z-0.4 I0.0063 J-0.0108
G2 X19.4579 Y18.2479 Z-0.4333 I-0.0125 J0.0
G2 Y18.2695 Z-0.4667 I0.0062 J0.0108
G2 X19.4766 Y18.2587 Z-0.5 I0.0063 J-0.0108
G2 X19.4579 Y18.2479 Z-0.5333 I-0.0125 J0.0
G2 Y18.2695 Z-0.5667 I0.0062 J0.0108
G2 X19.4766 Y18.2587 Z-0.6 I0.0063 J-0.0108
G2 X19.4579 Y18.2479 Z-0.6333 I-0.0125 J0.0
G2 Y18.2695 Z-0.6667 I0.0062 J0.0108
G2 X19.4766 Y18.2587 Z-0.7 I0.0063 J-0.0108
G2 X19.4579 Y18.2479 Z-0.7333 I-0.0125 J0.0
G2 Y18.2695 Z-0.7667 I0.0062 J0.0108
G2 X19.4766 Y18.2587 Z-0.8 I0.0063 J-0.0108
G2 X19.4579 Y18.2479 Z-0.8333 I-0.0125 J0.0
G2 Y18.2695 Z-0.8667 I0.0062 J0.0108
G2 X19.4766 Y18.2587 Z-0.9 I0.0063 J-0.0108
G2 X19.4579 Y18.2479 Z-0.9333 I-0.0125 J0.0
G2 Y18.2695 Z-0.9667 I0.0062 J0.0108
G2 X19.4766 Y18.2587 Z-1.0 I0.0063 J-0.0108
G2 X19.4579 Y18.2479 Z-1.0333 I-0.0125 J0.0
G2 Y18.2695 Z-1.0667 I0.0062 J0.0108
G2 X19.4766 Y18.2587 Z-1.1 I0.0063 J-0.0108
G2 X19.4579 Y18.2479 Z-1.1333 I-0.0125 J0.0
G2 Y18.2695 Z-1.1667 I0.0062 J0.0108
G2 X19.4766 Y18.2587 Z-1.2 I0.0063 J-0.0108
G2 X19.4579 Y18.2479 Z-1.2333 I-0.0125 J0.0
G2 Y18.2695 Z-1.2667 I0.0062 J0.0108
G2 X19.4766 Y18.2587 Z-1.3 I0.0063 J-0.0108
G2 X19.4579 Y18.2479 Z-1.3333 I-0.0125 J0.0
G2 Y18.2695 Z-1.3667 I0.0062 J0.0108
G2 X19.4766 Y18.2587 Z-1.4 I0.0063 J-0.0108
G2 X19.4579 Y18.2479 Z-1.4333 I-0.0125 J0.0
G2 Y18.2695 Z-1.4667 I0.0062 J0.0108
G2 X19.4766 Y18.2587 Z-1.5 I0.0063 J-0.0108
G2 X19.4579 Y18.2479 Z-1.5333 I-0.0125 J0.0
G2 Y18.2695 Z-1.5667 I0.0062 J0.0108
G2 X19.4766 Y18.2587 Z-1.6 I0.0063 J-0.0108
G2 X19.4579 Y18.2479 Z-1.6333 I-0.0125 J0.0
G2 Y18.2695 Z-1.6667 I0.0062 J0.0108
G2 X19.4766 Y18.2587 Z-1.7 I0.0063 J-0.0108
G2 X19.4579 Y18.2479 Z-1.7333 I-0.0125 J0.0
G2 Y18.2695 Z-1.7667 I0.0062 J0.0108
G2 X19.4766 Y18.2587 Z-1.8 I0.0063 J-0.0108
G2 X19.4579 Y18.2479 Z-1.8333 I-0.0125 J0.0
G2 Y18.2695 Z-1.8667 I0.0062 J0.0108
G2 X19.4766 Y18.2587 Z-1.9 I0.0063 J-0.0108
G2 X19.4579 Y18.2479 Z-1.9333 I-0.0125 J0.0
G2 Y18.2695 Z-1.9667 I0.0062 J0.0108
G2 X19.4766 Y18.2587 Z-2.0 I0.0063 J-0.0108
G2 X19.4579 Y18.2479 Z-2.0333 I-0.0125 J0.0
G2 Y18.2695 Z-2.0667 I0.0062 J0.0108
G2 X19.4766 Y18.2587 Z-2.1 I0.0063 J-0.0108
G2 X19.4579 Y18.2479 Z-2.1333 I-0.0125 J0.0
G2 Y18.2695 Z-2.1667 I0.0062 J0.0108
G2 X19.4766 Y18.2587 Z-2.2 I0.0063 J-0.0108
G2 X19.4579 Y18.2479 Z-2.2333 I-0.0125 J0.0
G2 Y18.2695 Z-2.2667 I0.0062 J0.0108
G2 X19.4766 Y18.2587 Z-2.3 I0.0063 J-0.0108
G2 X19.4579 Y18.2479 Z-2.3333 I-0.0125 J0.0
G2 Y18.2695 Z-2.3667 I0.0062 J0.0108
G2 X19.4766 Y18.2587 Z-2.4 I0.0063 J-0.0108
G2 X19.4579 Y18.2479 Z-2.4333 I-0.0125 J0.0
G2 Y18.2695 Z-2.4667 I0.0063 J0.0108
G2 X19.4766 Y18.2587 Z-2.5 I0.0062 J-0.0108
G2 X19.4579 Y18.2479 Z-2.5333 I-0.0125 J0.0
G2 Y18.2695 Z-2.5667 I0.0063 J0.0108
G2 X19.4766 Y18.2587 Z-2.6 I0.0062 J-0.0108
G2 X19.4579 Y18.2479 Z-2.6333 I-0.0125 J0.0
G2 Y18.2695 Z-2.6667 I0.0063 J0.0108
G2 X19.4766 Y18.2587 Z-2.7 I0.0062 J-0.0108
G2 X19.4579 Y18.2479 Z-2.7333 I-0.0125 J0.0
G2 Y18.2695 Z-2.7667 I0.0063 J0.0108
G2 X19.4766 Y18.2587 Z-2.8 I0.0062 J-0.0108
G2 X19.4579 Y18.2479 Z-2.8333 I-0.0125 J0.0
G2 Y18.2695 Z-2.8667 I0.0063 J0.0108
G2 X19.4766 Y18.2587 Z-2.9 I0.0062 J-0.0108
G2 X19.4579 Y18.2479 Z-2.9333 I-0.0125 J0.0
G2 Y18.2695 Z-2.9667 I0.0063 J0.0108
G2 X19.4766 Y18.2587 Z-3.0 I0.0062 J-0.0108
G2 X19.4579 Y18.2479 Z-3.0333 I-0.0125 J0.0
G2 Y18.2695 Z-3.0667 I0.0063 J0.0108
G2 X19.4766 Y18.2587 Z-3.1 I0.0062 J-0.0108
G2 X19.4579 Y18.2479 Z-3.1333 I-0.0125 J0.0
G2 Y18.2695 Z-3.1667 I0.0063 J0.0108
G2 X19.4766 Y18.2587 Z-3.2 I0.0062 J-0.0108
G2 X19.4579 Y18.2479 I-0.0125 J0.0
G2 Y18.2695 I0.0063 J0.0108
G2 X19.4766 Y18.2587 I0.0062 J-0.0108
G0 Z3.0
G0 X18.4312 Y3.6106
G1 F1000.0 Z0.0
G2 F2000.0 X18.4125 Y3.5998 Z-0.0333 I-0.0125 J0.0
G2 Y3.6214 Z-0.0667 I0.0063 J0.0108
G2 X18.4312 Y3.6106 Z-0.1 I0.0063 J-0.0108
G2 X18.4125 Y3.5998 Z-0.1333 I-0.0125 J0.0
G2 Y3.6214 Z-0.1667 I0.0063 J0.0108
G2 X18.4312 Y3.6106 Z-0.2 I0.0063 J-0.0108
G2 X18.4125 Y3.5998 Z-0.2333 I-0.0125 J0.0
G2 Y3.6214 Z-0.2667 I0.0063 J0.0108
G2 X18.4312 Y3.6106 Z-0.3 I0.0063 J-0.0108
G2 X18.4125 Y3.5998 Z-0.3333 I-0.0125 J0.0
G2 Y3.6214 Z-0.3667 I0.0063 J0.0108
G2 X18.4312 Y3.6106 Z-0.4 I0.0063 J-0.0108
G2 X18.4125 Y3.5998 Z-0.4333 I-0.0125 J0.0
G2 Y3.6214 Z-0.4667 I0.0063 J0.0108
G2 X18.4312 Y3.6106 Z-0.5 I0.0063 J-0.0108
G2 X18.4125 Y3.5998 Z-0.5333 I-0.0125 J0.0
G2 Y3.6214 Z-0.5667 I0.0063 J0.0108
G2 X18.4312 Y3.6106 Z-0.6 I0.0063 J-0.0108
G2 X18.4125 Y3.5998 Z-0.6333 I-0.0125 J0.0
G2 Y3.6214 Z-0.6667 I0.0063 J0.0108
G2 X18.4312 Y3.6106 Z-0.7 I0.0063 J-0.0108
G2 X18.4125 Y3.5998 Z-0.7333 I-0.0125 J0.0
G2 Y3.6214 Z-0.7667 I0.0063 J0.0108
G2 X18.4312 Y3.6106 Z-0.8 I0.0063 J-0.0108
G2 X18.4125 Y3.5998 Z-0.8333 I-0.0125 J0.0
G2 Y3.6214 Z-0.8667 I0.0063 J0.0108
G2 X18.4312 Y3.6106 Z-0.9 I0.0063 J-0.0108
G2 X18.4125 Y3.5998 Z-0.9333 I-0.0125 J0.0
G2 Y3.6214 Z-0.9667 I0.0063 J0.0108
G2 X18.4312 Y3.6106 Z-1.0 I0.0063 J-0.0108
G2 X18.4125 Y3.5998 Z-1.0333 I-0.0125 J0.0
G2 Y3.6214 Z-1.0667 I0.0063 J0.0108
G2 X18.4312 Y3.6106 Z-1.1 I0.0063 J-0.0108
G2 X18.4125 Y3.5998 Z-1.1333 I-0.0125 J0.0
G2 Y3.6214 Z-1.1667 I0.0063 J0.0108
G2 X18.4312 Y3.6106 Z-1.2 I0.0063 J-0.0108
G2 X18.4125 Y3.5998 Z-1.2333 I-0.0125 J0.0
G2 Y3.6214 Z-1.2667 I0.0062 J0.0108
G2 X18.4312 Y3.6106 Z-1.3 I0.0063 J-0.0108
G2 X18.4125 Y3.5998 Z-1.3333 I-0.0125 J0.0
G2 Y3.6214 Z-1.3667 I0.0062 J0.0108
G2 X18.4312 Y3.6106 Z-1.4 I0.0063 J-0.0108
G2 X18.4125 Y3.5998 Z-1.4333 I-0.0125 J0.0
G2 Y3.6214 Z-1.4667 I0.0062 J0.0108
G2 X18.4312 Y3.6106 Z-1.5 I0.0063 J-0.0108
G2 X18.4125 Y3.5998 Z-1.5333 I-0.0125 J0.0
G2 Y3.6214 Z-1.5667 I0.0062 J0.0108
G2 X18.4312 Y3.6106 Z-1.6 I0.0063 J-0.0108
G2 X18.4125 Y3.5998 Z-1.6333 I-0.0125 J0.0
G2 Y3.6214 Z-1.6667 I0.0062 J0.0108
G2 X18.4312 Y3.6106 Z-1.7 I0.0063 J-0.0108
G2 X18.4125 Y3.5998 Z-1.7333 I-0.0125 J0.0
G2 Y3.6214 Z-1.7667 I0.0062 J0.0108
G2 X18.4312 Y3.6106 Z-1.8 I0.0063 J-0.0108
G2 X18.4125 Y3.5998 Z-1.8333 I-0.0125 J0.0
G2 Y3.6214 Z-1.8667 I0.0062 J0.0108
G2 X18.4312 Y3.6106 Z-1.9 I0.0063 J-0.0108
G2 X18.4125 Y3.5998 Z-1.9333 I-0.0125 J0.0
G2 Y3.6214 Z-1.9667 I0.0062 J0.0108
G2 X18.4312 Y3.6106 Z-2.0 I0.0063 J-0.0108
G2 X18.4125 Y3.5998 Z-2.0333 I-0.0125 J0.0
G2 Y3.6214 Z-2.0667 I0.0062 J0.0108
G2 X18.4312 Y3.6106 Z-2.1 I0.0063 J-0.0108
G2 X18.4125 Y3.5998 Z-2.1333 I-0.0125 J0.0
G2 Y3.6214 Z-2.1667 I0.0062 J0.0108
G2 X18.4312 Y3.6106 Z-2.2 I0.0063 J-0.0108
G2 X18.4125 Y3.5998 Z-2.2333 I-0.0125 J0.0
G2 Y3.6214 Z-2.2667 I0.0063 J0.0108
G2 X18.4312 Y3.6106 Z-2.3 I0.0063 J-0.0108
G2 X18.4125 Y3.5998 Z-2.3333 I-0.0125 J0.0
G2 Y3.6214 Z-2.3667 I0.0063 J0.0108
G2 X18.4312 Y3.6106 Z-2.4 I0.0063 J-0.0108
G2 X18.4125 Y3.5998 Z-2.4333 I-0.0125 J0.0
G2 Y3.6214 Z-2.4667 I0.0063 J0.0108
G2 X18.4312 Y3.6106 Z-2.5 I0.0062 J-0.0108
G2 X18.4125 Y3.5998 Z-2.5333 I-0.0125 J0.0
G2 Y3.6214 Z-2.5667 I0.0063 J0.0108
G2 X18.4312 Y3.6106 Z-2.6 I0.0062 J-0.0108
G2 X18.4125 Y3.5998 Z-2.6333 I-0.0125 J0.0
G2 Y3.6214 Z-2.6667 I0.0063 J0.0108
G2 X18.4312 Y3.6106 Z-2.7 I0.0062 J-0.0108
G2 X18.4125 Y3.5998 Z-2.7333 I-0.0125 J0.0
G2 Y3.6214 Z-2.7667 I0.0063 J0.0108
G2 X18.4312 Y3.6106 Z-2.8 I0.0062 J-0.0108
G2 X18.4125 Y3.5998 Z-2.8333 I-0.0125 J0.0
G2 Y3.6214 Z-2.8667 I0.0063 J0.0108
G2 X18.4312 Y3.6106 Z-2.9 I0.0062 J-0.0108
G2 X18.4125 Y3.5998 Z-2.9333 I-0.0125 J0.0
G2 Y3.6214 Z-2.9667 I0.0063 J0.0108
G2 X18.4312 Y3.6106 Z-3.0 I0.0062 J-0.0108
G2 X18.4125 Y3.5998 Z-3.0333 I-0.0125 J0.0
G2 Y3.6214 Z-3.0667 I0.0063 J0.0108
G2 X18.4312 Y3.6106 Z-3.1 I0.0062 J-0.0108
G2 X18.4125 Y3.5998 Z-3.1333 I-0.0125 J0.0
G2 Y3.6214 Z-3.1667 I0.0063 J0.0108
G2 X18.4312 Y3.6106 Z-3.2 I0.0062 J-0.0108
G2 X18.4125 Y3.5998 I-0.0125 J0.0
G2 Y3.6214 I0.0063 J0.0108
G2 X18.4312 Y3.6106 I0.0062 J-0.0108
( cutout )
S1000
G0 Z3.0
G0 X0.0385 Y-1.5706
G1 F1000.0 Z-0.1
G1 F2000.0 X42.4108
G3 X43.9983 Y0.0169 I0.0 J1.5875
G1 Y128.1149
G3 X42.4108 Y129.7024 I-1.5875 J0.0
G1 X0.0385
G3 X-1.549 Y128.1149 I0.0 J-1.5875
G1 Y0.0169
G3 X0.0385 Y-1.5706 I1.5875 J0.0
G1 F1000.0 Z-0.2
G1 F2000.0 X42.4108
G3 X43.9983 Y0.0169 I0.0 J1.5875
G1 Y128.1149
G3 X42.4108 Y129.7024 I-1.5875 J0.0
G1 X0.0385
G3 X-1.549 Y128.1149 I0.0 J-1.5875
G1 Y0.0169
G3 X0.0385 Y-1.5706 I1.5875 J0.0
G1 F1000.0 Z-0.3
G1 F2000.0 X42.4108
G3 X43.9983 Y0.0169 I0.0 J1.5875
G1 Y128.1149
G3 X42.4108 Y129.7024 I-1.5875 J0.0
G1 X0.0385
G3 X-1.549 Y128.1149 I0.0 J-1.5875
G1 Y0.0169
G3 X0.0385 Y-1.5706 I1.5875 J0.0
G1 F1000.0 Z-0.4
G1 F2000.0 X42.4108
G3 X43.9983 Y0.0169 I0.0 J1.5875
G1 Y128.1149
G3 X42.4108 Y129.7024 I-1.5875 J0.0
G1 X0.0385
G3 X-1.549 Y128.1149 I0.0 J-1.5875
G1 Y0.0169
G3 X0.0385 Y-1.5706 I1.5875 J0.0
G1 F1000.0 Z-0.5
G1 F2000.0 X42.4108
G3 X43.9983 Y0.0169 I0.0 J1.5875
G1 Y128.1149
G3 X42.4108 Y129.7024 I-1.5875 J0.0
G1 X0.0385
G3 X-1.549 Y128.1149 I0.0 J-1.5875
G1 Y0.0169
G3 X0.0385 Y-1.5706 I1.5875 J0.0
G1 F1000.0 Z-0.6
G1 F2000.0 X42.4108
G3 X43.9983 Y0.0169 I0.0 J1.5875
G1 Y128.1149
G3 X42.4108 Y129.7024 I-1.5875 J0.0
G1 X0.0385
G3 X-1.549 Y128.1149 I0.0 J-1.5875
G1 Y0.0169
G3 X0.0385 Y-1.5706 I1.5875 J0.0
G1 F1000.0 Z-0.7
G1 F2000.0 X42.4108
G3 X43.9983 Y0.0169 I0.0 J1.5875
G1 Y128.1149
G3 X42.4108 Y129.7024 I-1.5875 J0.0
G1 X0.0385
G3 X-1.549 Y128.1149 I0.0 J-1.5875
G1 Y0.0169
G3 X0.0385 Y-1.5706 I1.5875 J0.0
G1 F1000.0 Z-0.8
G1 F2000.0 X42.4108
G3 X43.9983 Y0.0169 I0.0 J1.5875
G1 Y11.1681
G1 Y13.5056 Z-0.7
G1 Y15.8431 Z-0.8
G1 Y83.1598
G1 Y85.4973 Z-0.7
G1 Y87.8348 Z-0.8
G1 Y128.1149
G3 X42.4108 Y129.7024 I-1.5875 J0.0
G1 X0.0385
G3 X-1.549 Y128.1149 I0.0 J-1.5875
G1 Y119.2239
G1 Y116.8864 Z-0.7
G1 Y114.5489 Z-0.8
G1 Y44.972
G1 Y42.6345 Z-0.7
G1 Y40.297 Z-0.8
G1 Y0.0169
G3 X0.0385 Y-1.5706 I1.5875 J0.0
G1 F1000.0 Z-0.9
G1 F2000.0 X42.4108
G3 X43.9983 Y0.0169 I0.0 J1.5875
G1 Y11.1681
G1 Y13.5056 Z-0.7
G1 Y15.8431 Z-0.9
G1 Y83.1598
G1 Y85.4973 Z-0.7
G1 Y87.8348 Z-0.9
G1 Y128.1149
G3 X42.4108 Y129.7024 I-1.5875 J0.0
G1 X0.0385
G3 X-1.549 Y128.1149 I0.0 J-1.5875
G1 Y119.2239
G1 Y116.8864 Z-0.7
G1 Y114.5489 Z-0.9
G1 Y44.972
G1 Y42.6345 Z-0.7
G1 Y40.297 Z-0.9
G1 Y0.0169
G3 X0.0385 Y-1.5706 I1.5875 J0.0
G1 F1000.0 Z-1.0
G1 F2000.0 X42.4108
G3 X43.9983 Y0.0169 I0.0 J1.5875
G1 Y11.1681
G1 Y13.5056 Z-0.7
G1 Y15.8431 Z-1.0
G1 Y83.1598
G1 Y85.4973 Z-0.7
G1 Y87.8348 Z-1.0
G1 Y128.1149
G3 X42.4108 Y129.7024 I-1.5875 J0.0
G1 X0.0385
G3 X-1.549 Y128.1149 I0.0 J-1.5875
G1 Y119.2239
G1 Y116.8864 Z-0.7
G1 Y114.5489 Z-1.0
G1 Y44.972
G1 Y42.6345 Z-0.7
G1 Y40.297 Z-1.0
G1 Y0.0169
G3 X0.0385 Y-1.5706 I1.5875 J0.0
G1 F1000.0 Z-1.1
G1 F2000.0 X42.4108
G3 X43.9983 Y0.0169 I0.0 J1.5875
G1 Y11.1681
G1 Y13.5056 Z-0.7
G1 Y15.8431 Z-1.1
G1 Y83.1598
G1 Y85.4973 Z-0.7
G1 Y87.8348 Z-1.1
G1 Y128.1149
G3 X42.4108 Y129.7024 I-1.5875 J0.0
G1 X0.0385
G3 X-1.549 Y128.1149 I0.0 J-1.5875
G1 Y119.2239
G1 Y116.8864 Z-0.7
G1 Y114.5489 Z-1.1
G1 Y44.972
G1 Y42.6345 Z-0.7
G1 Y40.297 Z-1.1
G1 Y0.0169
G3 X0.0385 Y-1.5706 I1.5875 J0.0
G1 F1000.0 Z-1.2
G1 F2000.0 X42.4108
G3 X43.9983 Y0.0169 I0.0 J1.5875
G1 Y11.1681
G1 Y13.5056 Z-0.7
G1 Y15.8431 Z-1.2
G1 Y83.1598
G1 Y85.4973 Z-0.7
G1 Y87.8348 Z-1.2
G1 Y128.1149
G3 X42.4108 Y129.7024 I-1.5875 J0.0
G1 X0.0385
G3 X-1.549 Y128.1149 I0.0 J-1.5875
G1 Y119.2239
G1 Y116.8864 Z-0.7
G1 Y114.5489 Z-1.2
G1 Y44.972
G1 Y42.6345 Z-0.7
G1 Y40.297 Z-1.2
G1 Y0.0169
G3 X0.0385 Y-1.5706 I1.5875 J0.0
G1 F1000.0 Z-1.3
G1 F2000.0 X42.4108
G3 X43.9983 Y0.0169 I0.0 J1.5875
G1 Y11.1681
G1 Y13.5056 Z-0.7
G1 Y15.8431 Z-1.3
G1 Y83.1598
G1 Y85.4973 Z-0.7
G1 Y87.8348 Z-1.3
G1 Y128.1149
G3 X42.4108 Y129.7024 I-1.5875 J0.0
G1 X0.0385
G3 X-1.549 Y128.1149 I0.0 J-1.5875
G1 Y119.2239
G1 Y116.8864 Z-0.7
G1 Y114.5489 Z-1.3
G1 Y44.972
G1 Y42.6345 Z-0.7
G1 Y40.297 Z-1.3
G1 Y0.0169
G3 X0.0385 Y-1.5706 I1.5875 J0.0
G1 F1000.0 Z-1.4
G1 F2000.0 X42.4108
G3 X43.9983 Y0.0169 I0.0 J1.5875
G1 Y11.1681
G1 Y13.5056 Z-0.7
G1 Y15.8431 Z-1.4
G1 Y83.1598
G1 Y85.4973 Z-0.7
G1 Y87.8348 Z-1.4
G1 Y128.1149
G3 X42.4108 Y129.7024 I-1.5875 J0.0
G1 X0.0385
G3 X-1.549 Y128.1149 I0.0 J-1.5875
G1 Y119.2239
G1 Y116.8864 Z-0.7
G1 Y114.5489 Z-1.4
G1 Y44.972
G1 Y42.6345 Z-0.7
G1 Y40.297 Z-1.4
G1 Y0.0169
G3 X0.0385 Y-1.5706 I1.5875 J0.0
G1 F1000.0 Z-1.5
G1 F2000.0 X42.4108
G3 X43.9983 Y0.0169 I0.0 J1.5875
G1 Y11.1681
G1 Y13.5056 Z-0.7
G1 Y15.8431 Z-1.5
G1 Y83.1598
G1 Y85.4973 Z-0.7
G1 Y87.8348 Z-1.5
G1 Y128.1149
G3 X42.4108 Y129.7024 I-1.5875 J0.0
G1 X0.0385
G3 X-1.549 Y128.1149 I0.0 J-1.5875
G1 Y119.2239
G1 Y116.8864 Z-0.7
G1 Y114.5489 Z-1.5
G1 Y44.972
G1 Y42.6345 Z-0.7
G1 Y40.297 Z-1.5
G1 Y0.0169
G3 X0.0385 Y-1.5706 I1.5875 J0.0
G1 F1000.0 Z-1.6
G1 F2000.0 X42.4108
G3 X43.9983 Y0.0169 I0.0 J1.5875
G1 Y11.1681
G1 Y13.5056 Z-0.7
G1 Y15.8431 Z-1.6
G1 Y83.1598
G1 Y85.4973 Z-0.7
G1 Y87.8348 Z-1.6
G1 Y128.1149
G3 X42.4108 Y129.7024 I-1.5875 J0.0
G1 X0.0385
G3 X-1.549 Y128.1149 I0.0 J-1.5875
G1 Y119.2239
G1 Y116.8864 Z-0.7
G1 Y114.5489 Z-1.6
G1 Y44.972
G1 Y42.6345 Z-0.7
G1 Y40.297 Z-1.6
G1 Y0.0169
G3 X0.0385 Y-1.5706 I1.5875 J0.0
G1 F1000.0 Z-1.7
G1 F2000.0 X42.4108
G3 X43.9983 Y0.0169 I0.0 J1.5875
G1 Y11.1681
G1 Y13.5056 Z-0.7
G1 Y15.8431 Z-1.7
G1 Y83.1598
G1 Y85.4973 Z-0.7
G1 Y87.8348 Z-1.7
G1 Y128.1149
G3 X42.4108 Y129.7024 I-1.5875 J0.0
G1 X0.0385
G3 X-1.549 Y128.1149 I0.0 J-1.5875
G1 Y119.2239
G1 Y116.8864 Z-0.7
G1 Y114.5489 Z-1.7
G1 Y44.972
G1 Y42.6345 Z-0.7
G1 Y40.297 Z-1.7
G1 Y0.0169
G3 X0.0385 Y-1.5706 I1.5875 J0.0
G1 F1000.0 Z-1.8
G1 F2000.0 X42.4108
G3 X43.9983 Y0.0169 I0.0 J1.5875
G1 Y11.1681
G1 Y13.5056 Z-0.7
G1 Y15.8431 Z-1.8
G1 Y83.1598
G1 Y85.4973 Z-0.7
G1 Y87.8348 Z-1.8
G1 Y128.1149
G3 X42.4108 Y129.7024 I-1.5875 J0.0
G1 X0.0385
G3 X-1.549 Y128.1149 I0.0 J-1.5875
G1 Y119.2239
G1 Y116.8864 Z-0.7
G1 Y114.5489 Z-1.8
G1 Y44.972
G1 Y42.6345 Z-0.7
G1 Y40.297 Z-1.8
G1 Y0.0169
G3 X0.0385 Y-1.5706 I1.5875 J0.0
G1 F1000.0 Z-1.9
G1 F2000.0 X42.4108
G3 X43.9983 Y0.0169 I0.0 J1.5875
G1 Y11.1681
G1 Y13.5056 Z-0.7
G1 Y15.8431 Z-1.9
G1 Y83.1598
G1 Y85.4973 Z-0.7
G1 Y87.8348 Z-1.9
G1 Y128.1149
G3 X42.4108 Y129.7024 I-1.5875 J0.0
G1 X0.0385
G3 X-1.549 Y128.1149 I0.0 J-1.5875
G1 Y119.2239
G1 Y116.8864 Z-0.7
G1 Y114.5489 Z-1.9
G1 Y44.972
G1 Y42.6345 Z-0.7
G1 Y40.297 Z-1.9
G1 Y0.0169
G3 X0.0385 Y-1.5706 I1.5875 J0.0
G1 F1000.0 Z-2.0
G1 F2000.0 X42.4108
G3 X43.9983 Y0.0169 I0.0 J1.5875
G1 Y11.1681
G1 Y13.5056 Z-0.7
G1 Y15.8431 Z-2.0
G1 Y83.1598
G1 Y85.4973 Z-0.7
G1 Y87.8348 Z-2.0
G1 Y128.1149
G3 X42.4108 Y129.7024 I-1.5875 J0.0
G1 X0.0385
G3 X-1.549 Y128.1149 I0.0 J-1.5875
G1 Y119.2239
G1 Y116.8864 Z-0.7
G1 Y114.5489 Z-2.0
G1 Y44.972
G1 Y42.6345 Z-0.7
G1 Y40.297 Z-2.0
G1 Y0.0169
G3 X0.0385 Y-1.5706 I1.5875 J0.0
G1 F1000.0 Z-2.1
G1 F2000.0 X42.4108
G3 X43.9983 Y0.0169 I0.0 J1.5875
G1 Y11.1681
G1 Y13.5056 Z-0.7
G1 Y15.8431 Z-2.1
G1 Y83.1598
G1 Y85.4973 Z-0.7
G1 Y87.8348 Z-2.1
G1 Y128.1149
G3 X42.4108 Y129.7024 I-1.5875 J0.0
G1 X0.0385
G3 X-1.549 Y128.1149 I0.0 J-1.5875
G1 Y119.2239
G1 Y116.8864 Z-0.7
G1 Y114.5489 Z-2.1
G1 Y44.972
G1 Y42.6345 Z-0.7
G1 Y40.297 Z-2.1
G1 Y0.0169
G3 X0.0385 Y-1.5706 I1.5875 J0.0
G1 F1000.0 Z-2.2
G1 F2000.0 X42.4108
G3 X43.9983 Y0.0169 I0.0 J1.5875
G1 Y11.1681
G1 Y13.5056 Z-0.7
G1 Y15.8431 Z-2.2
G1 Y83.1598
G1 Y85.4973 Z-0.7
G1 Y87.8348 Z-2.2
G1 Y128.1149
G3 X42.4108 Y129.7024 I-1.5875 J0.0
G1 X0.0385
G3 X-1.549 Y128.1149 I0.0 J-1.5875
G1 Y119.2239
G1 Y116.8864 Z-0.7
G1 Y114.5489 Z-2.2
G1 Y44.972
G1 Y42.6345 Z-0.7
G1 Y40.297 Z-2.2
G1 Y0.0169
G3 X0.0385 Y-1.5706 I1.5875 J0.0
G1 F1000.0 Z-2.3
G1 F2000.0 X42.4108
G3 X43.9983 Y0.0169 I0.0 J1.5875
G1 Y11.1681
G1 Y13.5056 Z-0.7
G1 Y15.8431 Z-2.3
G1 Y83.1598
G1 Y85.4973 Z-0.7
G1 Y87.8348 Z-2.3
G1 Y128.1149
G3 X42.4108 Y129.7024 I-1.5875 J0.0
G1 X0.0385
G3 X-1.549 Y128.1149 I0.0 J-1.5875
G1 Y119.2239
G1 Y116.8864 Z-0.7
G1 Y114.5489 Z-2.3
G1 Y44.972
G1 Y42.6345 Z-0.7
G1 Y40.297 Z-2.3
G1 Y0.0169
G3 X0.0385 Y-1.5706 I1.5875 J0.0
G1 F1000.0 Z-2.4
G1 F2000.0 X42.4108
G3 X43.9983 Y0.0169 I0.0 J1.5875
G1 Y11.1681
G1 Y13.5056 Z-0.7
G1 Y15.8431 Z-2.4
G1 Y83.1598
G1 Y85.4973 Z-0.7
G1 Y87.8348 Z-2.4
G1 Y128.1149
G3 X42.4108 Y129.7024 I-1.5875 J0.0
G1 X0.0385
G3 X-1.549 Y128.1149 I0.0 J-1.5875
G1 Y119.2239
G1 Y116.8864 Z-0.7
G1 Y114.5489 Z-2.4
G1 Y44.972
G1 Y42.6345 Z-0.7
G1 Y40.297 Z-2.4
G1 Y0.0169
G3 X0.0385 Y-1.5706 I1.5875 J0.0
G1 F1000.0 Z-2.5
G1 F2000.0 X42.4108
G3 X43.9983 Y0.0169 I0.0 J1.5875
G1 Y11.1681
G1 Y13.5056 Z-0.7
G1 Y15.8431 Z-2.5
G1 Y83.1598
G1 Y85.4973 Z-0.7
G1 Y87.8348 Z-2.5
G1 Y128.1149
G3 X42.4108 Y129.7024 I-1.5875 J0.0
G1 X0.0385
G3 X-1.549 Y128.1149 I0.0 J-1.5875
G1 Y119.2239
G1 Y116.8864 Z-0.7
G1 Y114.5489 Z-2.5
G1 Y44.972
G1 Y42.6345 Z-0.7
G1 Y40.297 Z-2.5
G1 Y0.0169
G3 X0.0385 Y-1.5706 I1.5875 J0.0
G1 F1000.0 Z-2.6
G1 F2000.0 X42.4108
G3 X43.9983 Y0.0169 I0.0 J1.5875
G1 Y11.1681
G1 Y13.5056 Z-0.7
G1 Y15.8431 Z-2.6
G1 Y83.1598
G1 Y85.4973 Z-0.7
G1 Y87.8348 Z-2.6
G1 Y128.1149
G3 X42.4108 Y129.7024 I-1.5875 J0.0
G1 X0.0385
G3 X-1.549 Y128.1149 I0.0 J-1.5875
G1 Y119.2239
G1 Y116.8864 Z-0.7
G1 Y114.5489 Z-2.6
G1 Y44.972
G1 Y42.6345 Z-0.7
G1 Y40.297 Z-2.6
G1 Y0.0169
G3 X0.0385 Y-1.5706 I1.5875 J0.0
G1 F1000.0 Z-2.7
G1 F2000.0 X42.4108
G3 X43.9983 Y0.0169 I0.0 J1.5875
G1 Y11.1681
G1 Y13.5056 Z-0.7
G1 Y15.8431 Z-2.7
G1 Y83.1598
G1 Y85.4973 Z-0.7
G1 Y87.8348 Z-2.7
G1 Y128.1149
G3 X42.4108 Y129.7024 I-1.5875 J0.0
G1 X0.0385
G3 X-1.549 Y128.1149 I0.0 J-1.5875
G1 Y119.2239
G1 Y116.8864 Z-0.7
G1 Y114.5489 Z-2.7
G1 Y44.972
G1 Y42.6345 Z-0.7
G1 Y40.297 Z-2.7
G1 Y0.0169
G3 X0.0385 Y-1.5706 I1.5875 J0.0
G1 F1000.0 Z-2.8
G1 F2000.0 X42.4108
G3 X43.9983 Y0.0169 I0.0 J1.5875
G1 Y11.1681
G1 Y13.5056 Z-0.7
G1 Y15.8431 Z-2.8
G1 Y83.1598
G1 Y85.4973 Z-0.7
G1 Y87.8348 Z-2.8
G1 Y128.1149
G3 X42.4108 Y129.7024 I-1.5875 J0.0
G1 X0.0385
G3 X-1.549 Y128.1149 I0.0 J-1.5875
G1 Y119.2239
G1 Y116.8864 Z-0.7
G1 Y114.5489 Z-2.8
G1 Y44.972
G1 Y42.6345 Z-0.7
G1 Y40.297 Z-2.8
G1 Y0.0169
G3 X0.0385 Y-1.5706 I1.5875 J0.0
G1 F1000.0 Z-2.9
G1 F2000.0 X42.4108
G3 X43.9983 Y0.0169 I0.0 J1.5875
G1 Y11.1681
G1 Y13.5056 Z-0.7
G1 Y15.8431 Z-2.9
G1 Y83.1598
G1 Y85.4973 Z-0.7
G1 Y87.8348 Z-2.9
G1 Y128.1149
G3 X42.4108 Y129.7024 I-1.5875 J0.0
G1 X0.0385
G3 X-1.549 Y128.1149 I0.0 J-1.5875
G1 Y119.2239
G1 Y116.8864 Z-0.7
G1 Y114.5489 Z-2.9
G1 Y44.972
G1 Y42.6345 Z-0.7
G1 Y40.297 Z-2.9
G1 Y0.0169
G3 X0.0385 Y-1.5706 I1.5875 J0.0
G1 F1000.0 Z-3.0
G1 F2000.0 X42.4108
G3 X43.9983 Y0.0169 I0.0 J1.5875
G1 Y11.1681
G1 Y13.5056 Z-0.7
G1 Y15.8431 Z-3.0
G1 Y83.1598
G1 Y85.4973 Z-0.7
G1 Y87.8348 Z-3.0
G1 Y128.1149
G3 X42.4108 Y129.7024 I-1.5875 J0.0
G1 X0.0385
G3 X-1.549 Y128.1149 I0.0 J-1.5875
G1 Y119.2239
G1 Y116.8864 Z-0.7
G1 Y114.5489 Z-3.0
G1 Y44.972
G1 Y42.6345 Z-0.7
G1 Y40.297 Z-3.0
G1 Y0.0169
G3 X0.0385 Y-1.5706 I1.5875 J0.0
G1 F1000.0 Z-3.1
G1 F2000.0 X42.4108
G3 X43.9983 Y0.0169 I0.0 J1.5875
G1 Y11.1681
G1 Y13.5056 Z-0.7
G1 Y15.8431 Z-3.1
G1 Y83.1598
G1 Y85.4973 Z-0.7
G1 Y87.8348 Z-3.1
G1 Y128.1149
G3 X42.4108 Y129.7024 I-1.5875 J0.0
G1 X0.0385
G3 X-1.549 Y128.1149 I0.0 J-1.5875
G1 Y119.2239
G1 Y116.8864 Z-0.7
G1 Y114.5489 Z-3.1
G1 Y44.972
G1 Y42.6345 Z-0.7
G1 Y40.297 Z-3.1
G1 Y0.0169
G3 X0.0385 Y-1.5706 I1.5875 J0.0
G1 F1000.0 Z-3.2
G1 F2000.0 X42.4108
G3 X43.9983 Y0.0169 I0.0 J1.5875
G1 Y11.1681
G1 Y13.5056 Z-0.7
G1 Y15.8431 Z-3.2
G1 Y83.1598
G1 Y85.4973 Z-0.7
G1 Y87.8348 Z-3.2
G1 Y128.1149
G3 X42.4108 Y129.7024 I-1.5875 J0.0
G1 X0.0385
G3 X-1.549 Y128.1149 I0.0 J-1.5875
G1 Y119.2239
G1 Y116.8864 Z-0.7
G1 Y114.5489 Z-3.2
G1 Y44.972
G1 Y42.6345 Z-0.7
G1 Y40.297 Z-3.2
G1 Y0.0169
G3 X0.0385 Y-1.5706 I1.5875 J0.0
G0 Z3.0
M5
M30
