(/Applications/pcbgcode.repo/pcb-gcode.ulp)
(Copyright 2005 - 2012 by John Johnson)
(See readme.txt for licensing terms.)
(This file generated from the board:)
(.../EFM_VCF_4622/eagle/EFM_VCF_4622.brd)
(Current profile is .../pcbgcode.repo/profiles/mach.pp  )
(This file generated 1/16/16 8:27 AM)
(Settings from pcb-machine.h)
(spindle on time = 0.0000)
(spindle speed = 20000.0000)
(tool change at 0.0000  0.0000  3.0000  )
(feed rate xy = F0     )
(feed rate z  = F20    )
(Z Axis Settings)
(  High     Up        Down     Drill)
(1.0000  	0.0500  	-0.0040 	-0.0730 )
(Settings from pcb-defaults.h)
(isolate min = 0.0010)
(isolate max = 0.0150)
(isolate step = 0.0015)
(Generated bottom outlines, bottom drill, )
(Unit of measure: inch)
( Tool|       Size       |  Min Sub |  Max Sub |   Count )
( T01 | 0.800mm 0.0315in | 0.0000in | 0.0000in |       0 )
( T02 | 0.813mm 0.0320in | 0.0000in | 0.0000in |       0 )
( T03 | 0.914mm 0.0360in | 0.0000in | 0.0000in |       0 )
( T04 | 1.016mm 0.0400in | 0.0000in | 0.0000in |       0 )
( T05 | 1.200mm 0.0472in | 0.0000in | 0.0000in |       0 )
( T06 | 1.300mm 0.0512in | 0.0000in | 0.0000in |       0 )
(Inch Mode)
G20
(Absolute Coordinates)
G90
S20000
G00 Z1.0000  
G00 X0.0000  Y0.0000  
M03
G04 P0.000000
M05
G00 Z3.0000  
M06 T01  ; 0.0315  
G01 Z0.0000  F20    
M06 
G00 Z0.0500  
M03
G04 P0.000000
G82 X-1.3000 Y1.4800  Z-0.0730 F20    R0.0500  P0.010000
G82 X-1.5300 Y1.9100  
G82 X-1.6500 Y2.2000  
G82 X-1.8300 Y2.0400  
G82 X-2.1600 Y2.1300  
G82 X-2.3800 Y2.0400  
G82 X-2.6600 Y2.1500  
G82 X-2.8400 Y2.0400  
G82 X-3.1400 Y2.1700  
G82 X-3.3400 Y2.0400  
M05
G00 Z3.0000  
G00 X0.0000  Y0.0000  
M06 T02  ; 0.0320  
G01 Z0.0000  F20    
M06 
G00 Z0.0500  
M03
G04 P0.000000
G82 X-0.4000 Y0.8100  Z-0.0730 F20    R0.0500  P0.010000
G82 X-0.7000 Y0.8100  
G82 X-0.7500 Y0.7500  
G82 X-0.7500 Y0.4500  
G82 X-0.8700 Y1.0700  
G82 X-0.8900 Y1.2900  
G82 X-0.7900 Y1.2900  
G82 X-1.0750 Y1.1900  
G82 X-1.1500 Y1.1400  
G82 X-1.1500 Y1.2400  
G82 X-1.2800 Y1.1000  
G82 X-1.2000 Y1.0000  
G82 X-1.2750 Y0.9500  
G82 X-1.2000 Y0.9000  
G82 X-1.4100 Y0.8600  
G82 X-1.4100 Y0.9800  
G82 X-1.5800 Y1.1000  
G82 X-1.4800 Y1.2100  
G82 X-1.3400 Y1.3800  
G82 X-1.2000 Y1.6000  
G82 X-1.3500 Y1.8000  
G82 X-1.4000 Y1.8750  
G82 X-1.4500 Y1.8000  
G82 X-1.4400 Y1.9800  
G82 X-1.4400 Y2.1000  
G82 X-1.4500 Y2.2500  
G82 X-1.4000 Y2.3250  
G82 X-1.3500 Y2.2500  
G82 X-1.1400 Y2.1000  
G82 X-1.1400 Y1.9800  
G82 X-1.2000 Y1.9000  
G82 X-1.0200 Y2.0400  
G82 X-0.9600 Y1.8500  
G82 X-0.9600 Y1.7500  
G82 X-0.7500 Y1.7000  
G82 X-0.7500 Y1.8000  
G82 X-0.7500 Y1.9500  
G82 X-0.7500 Y2.0500  
G82 X-0.7500 Y2.1800  
G82 X-0.7500 Y2.2800  
G82 X-1.0200 Y2.3400  
G82 X-1.6500 Y2.0500  
G82 X-1.7400 Y1.9100  
G82 X-1.6500 Y1.8500  
G82 X-1.8400 Y1.7100  
G82 X-1.8900 Y1.7850  
G82 X-1.9400 Y1.7100  
G82 X-2.1000 Y1.5600  
G82 X-2.2700 Y1.3700  
G82 X-2.3700 Y1.3700  
G82 X-2.4700 Y1.3700  
G82 X-2.5700 Y1.3700  
G82 X-2.6700 Y1.3700  
G82 X-2.7700 Y1.3700  
G82 X-2.8700 Y1.3700  
G82 X-2.9700 Y1.3700  
G82 X-3.2600 Y1.3000  
G82 X-3.4600 Y1.2400  
G82 X-3.6600 Y1.2400  
G82 X-3.6000 Y1.4000  
G82 X-3.6000 Y1.7000  
G82 X-3.4400 Y1.7100  
G82 X-3.3900 Y1.7850  
G82 X-3.3400 Y1.7100  
G82 X-3.2500 Y1.9200  
G82 X-3.1500 Y1.8400  
G82 X-3.0600 Y1.9200  
G82 X-3.1500 Y2.0400  
G82 X-3.3400 Y2.1600  
G82 X-3.3900 Y2.2350  
G82 X-3.4400 Y2.1600  
G82 X-3.5500 Y1.9200  
G82 X-2.9400 Y1.7100  
G82 X-2.8900 Y1.7850  
G82 X-2.8400 Y1.7100  
G82 X-2.6600 Y1.8200  
G82 X-2.7600 Y1.9200  
G82 X-2.6600 Y2.0200  
G82 X-2.5500 Y1.9100  
G82 X-2.4400 Y1.7850  
G82 X-2.3900 Y1.7100  
G82 X-2.4900 Y1.7100  
G82 X-2.2500 Y1.9100  
G82 X-2.1600 Y2.0100  
G82 X-2.0400 Y1.9100  
G82 X-2.1600 Y1.8100  
G82 X-1.9400 Y2.1600  
G82 X-1.8900 Y2.2350  
G82 X-1.8400 Y2.1600  
G82 X-2.3900 Y2.1600  
G82 X-2.4400 Y2.2350  
G82 X-2.4900 Y2.1600  
G82 X-2.8400 Y2.1600  
G82 X-2.8900 Y2.2350  
G82 X-2.9400 Y2.1600  
G82 X-2.9700 Y1.0700  
G82 X-2.8700 Y1.0700  
G82 X-2.7700 Y1.0700  
G82 X-2.6700 Y1.0700  
G82 X-2.5700 Y1.0700  
G82 X-2.4700 Y1.0700  
G82 X-2.3700 Y1.0700  
G82 X-2.2700 Y1.0700  
G82 X-2.0800 Y1.1000  
G82 X-2.0050 Y1.0500  
G82 X-2.0800 Y1.0000  
G82 X-2.0500 Y0.8300  
G82 X-1.8800 Y0.9700  
G82 X-1.7100 Y0.9800  
G82 X-1.7100 Y0.8600  
G82 X-1.7500 Y0.7000  
G82 X-1.8800 Y0.6700  
G82 X-1.7500 Y0.4000  
G82 X-2.3500 Y0.8300  
G82 X-2.7800 Y0.8900  
G82 X-2.8800 Y0.6600  
G82 X-2.7800 Y0.5900  
G82 X-3.1800 Y0.6600  
G82 X-3.2600 Y1.0000  
G82 X-2.1000 Y1.2600  
G82 X-1.7800 Y1.2100  
G82 X-1.6400 Y1.3800  
G82 X-0.5700 Y1.0700  
M05
G00 Z3.0000  
G00 X0.0000  Y0.0000  
M06 T03  ; 0.0360  
G01 Z0.0000  F20    
M06 
G00 Z0.0500  
M03
G04 P0.000000
G82 X-2.5500 Y0.4300  Z-0.0730 F20    R0.0500  P0.010000
G82 X-2.5500 Y0.8300  
M05
G00 Z3.0000  
G00 X0.0000  Y0.0000  
M06 T04  ; 0.0400  
G01 Z0.0000  F20    
M06 
G00 Z0.0500  
M03
G04 P0.000000
G82 X-0.2800 Y1.0100  Z-0.0730 F20    R0.0500  P0.010000
G82 X-0.3000 Y0.8500  
G82 X-0.3000 Y1.4000  
G82 X-0.4000 Y1.4000  
G82 X-0.4000 Y1.5000  
G82 X-0.3000 Y1.5000  
G82 X-0.3000 Y1.6000  
G82 X-0.3000 Y1.7000  
G82 X-0.4000 Y1.7000  
G82 X-0.4000 Y1.6000  
G82 X-0.4000 Y1.8000  
G82 X-0.4000 Y1.9000  
G82 X-0.3000 Y1.9000  
G82 X-0.3000 Y1.8000  
G82 X-0.3000 Y2.0000  
G82 X-0.4000 Y2.0000  
G82 X-0.4000 Y2.1000  
G82 X-0.3000 Y2.1000  
G82 X-1.8000 Y1.0800  
G82 X-2.2000 Y0.5000  
M05
G00 Z3.0000  
G00 X0.0000  Y0.0000  
M06 T05  ; 0.0472  
G01 Z0.0000  F20    
M06 
G00 Z0.0500  
M03
G04 P0.000000
G82 X-0.5531 Y0.1500  Z-0.0730 F20    R0.0500  P0.010000
G82 X-0.7500 Y0.1500  
G82 X-0.9469 Y0.1500  
G82 X-1.6531 Y0.1500  
G82 X-1.8500 Y0.1500  
G82 X-2.0469 Y0.1500  
G82 X-2.3331 Y0.1500  
G82 X-2.5300 Y0.1500  
G82 X-2.7269 Y0.1500  
G82 X-3.0031 Y0.1500  
G82 X-3.2000 Y0.1500  
G82 X-3.3969 Y0.1500  
M05
G00 Z3.0000  
G00 X0.0000  Y0.0000  
M06 T06  ; 0.0512  
G01 Z0.0000  F20    
M06 
G00 Z0.0500  
M03
G04 P0.000000
G82 X-0.1700 Y0.0980  Z-0.0730 F20    R0.0500  P0.010000
G82 X-0.2031 Y0.0984  
G82 X-0.2370 Y0.0980  
G82 X-0.4080 Y0.4980  
G82 X-0.4079 Y0.5315  
G82 X-0.4080 Y0.5650  
G82 X-0.2360 Y0.6180  
G82 X-0.2031 Y0.6181  
G82 X-0.1700 Y0.6180  
G82 X-1.2700 Y0.6180  
G82 X-1.3031 Y0.6181  
G82 X-1.3360 Y0.6180  
G82 X-1.5080 Y0.5650  
G82 X-1.5079 Y0.5315  
G82 X-1.5080 Y0.4980  
G82 X-1.3370 Y0.0980  
G82 X-1.3031 Y0.0984  
G82 X-1.2700 Y0.0980  
G82 X-3.7200 Y0.0980  
G82 X-3.7531 Y0.0984  
G82 X-3.7870 Y0.0980  
G82 X-3.9580 Y0.4980  
G82 X-3.9579 Y0.5315  
G82 X-3.9580 Y0.5650  
G82 X-3.7860 Y0.6180  
G82 X-3.7531 Y0.6181  
G82 X-3.7200 Y0.6180  
T01 
G00 Z1.0000  
M05
M02
