(/Applications/pcbgcode.repo/pcb-gcode.ulp)
(Copyright 2005 - 2012 by John Johnson)
(See readme.txt for licensing terms.)
(This file generated from the board:)
(.../EFM_VCF_4622/eagle/EFM_VCF_4622.brd)
(Current profile is .../pcbgcode.repo/profiles/mach.pp  )
(This file generated 1/16/16 8:27 AM)
(Settings from pcb-machine.h)
(spindle on time = 0.0000)
(spindle speed = 15000.0000)
(milling depth = -0.0630)
(tool change at 0.0000  0.0000  3.0000  )
(feed rate xy = F10    )
(feed rate z  = F5     )
(Z Axis Settings)
(  High     Up        Down     Drill)
(1.0000  	0.0500  	-0.0040 	-0.0730 )
(Settings from pcb-defaults.h)
(isolate min = 0.0010)
(isolate max = 0.0150)
(isolate step = 0.0015)
(Generated bottom outlines, bottom drill, )
(Unit of measure: inch)
(Inch Mode)
G20
(Absolute Coordinates)
G90
S15000
G00 Z1.0000  
G00 X0.0000  Y0.0000  
M03
G04 P0.000000
G00 Z0.0500  
G00 X0.0000  Y-0.0300 
G01 Z-0.0630 F5     
G01 X3.9900  Y-0.0300 F10    
G01 X4.0500  Y0.0500  
G01 X4.0500  Y2.5300  
G01 X3.9800  Y2.5800  
G01 X0.0100  Y2.5800  
G01 X-0.0300 Y2.5200  
G01 X-0.0300 Y0.0200  
G01 X0.0000  Y-0.0300 
G00 Z0.0500  
G00 X0.0900  Y0.2400  
G01 Z-0.0630 F5     
G01 X0.0900  Y0.2600  F10    
G01 X0.1000  Y0.2700  
G00 Z0.0500  
G00 X0.1200  Y0.2700  
G01 Z-0.0630 F5     
G01 X0.1200  Y0.2400  F10    
G01 X0.0900  Y0.2400  
G00 Z0.0500  
G00 X0.0900  Y2.4400  
G01 Z-0.0630 F5     
G01 X0.0900  Y2.4600  F10    
G01 X0.1000  Y2.4700  
G00 Z0.0500  
G00 X0.1200  Y2.4700  
G01 Z-0.0630 F5     
G01 X0.1200  Y2.4400  F10    
G01 X0.0900  Y2.4400  
G00 Z0.0500  
G00 X3.8900  Y2.4400  
G01 Z-0.0630 F5     
G01 X3.9000  Y2.4500  F10    
G00 Z0.0500  
G00 X3.8900  Y2.4400  
G01 Z-0.0630 F5     
G01 X3.8900  Y2.4200  F10    
G01 X3.9200  Y2.4200  
G01 X3.9200  Y2.4500  
G00 Z0.0500  
G00 X3.7800  Y0.3500  
G01 Z-0.0630 F5     
G01 X3.7800  Y0.3200  F10    
G01 X3.7500  Y0.3200  
G01 X3.7500  Y0.3400  
G01 X3.7600  Y0.3500  
G00 Z1.0000  
M05
M02
